; HEADER_BLOCK_START
; generated by Creality_Print V5.1.4.10249 on 2025-03-09 at 15:18:57
; total layer number: 20
; filament_density: 1.24
; filament_diameter: 1.75
; max_z_height: 4.00
; HEADER_BLOCK_END

; MINX = 38.69
; MINY = 45.03
; MINZ = 0.00
; MAXX = 261.31
; MAXY = 254.97
; MAXZ = 4.00

; external perimeters extrusion width = 0.42mm
; perimeters extrusion width = 0.45mm
; infill extrusion width = 0.45mm
; solid infill extrusion width = 0.42mm
; top infill extrusion width = 0.42mm
; first layer extrusion width = 0.50mm

; EXECUTABLE_BLOCK_START
EXCLUDE_OBJECT_DEFINE NAME=Yarn_Holder_-_Both_Parts.stl_id_0_copy_0 CENTER=150,150 POLYGON=[[38.6934,48.8939],[38.7471,48.6609],[38.8546,48.4474],[39.0097,48.2654],[39.2036,48.1255],[41.2617,47.1073],[43.4047,46.2822],[45.6143,45.6572],[47.8719,45.2376],[50.1585,45.0269],[52.4548,45.0269],[54.7414,45.2376],[210.883,65.7696],[214.658,66.5048],[218.378,67.4804],[222.029,68.6924],[225.594,70.1358],[229.059,71.8046],[232.41,73.6919],[235.634,75.7902],[238.716,78.0906],[241.645,80.5838],[244.408,83.2596],[246.993,86.1068],[249.391,89.1139],[251.592,92.2684],[253.586,95.5575],[255.365,98.9675],[256.922,102.484],[258.25,106.094],[259.344,109.781],[260.2,113.531],[260.814,117.328],[261.183,121.156],[261.307,125.001],[261.183,128.845],[260.814,132.673],[260.2,136.47],[259.344,140.22],[258.25,143.907],[256.922,147.517],[255.365,151.034],[253.586,154.444],[251.592,157.733],[249.391,160.887],[246.993,163.894],[244.408,166.741],[241.645,169.417],[238.716,171.91],[235.634,174.211],[232.41,176.309],[229.059,178.196],[225.594,179.865],[52.8517,254.756],[51.8293,254.973],[50.784,254.973],[49.7615,254.756],[48.8066,254.331],[47.961,253.716],[47.2615,252.939],[46.7389,252.034],[46.4159,251.04],[46.3066,250.001],[38.6965,49.133],[38.6934,48.8939]]
M73 P0 R39
M106 S0
M106 P2 S0
;TYPE:Custom
M140 S0
M104 S0 
START_PRINT EXTRUDER_TEMP=220 BED_TEMP=60
G90
G21
M83 ; use relative distances for extrusion
; filament start gcode
M106 S0
;LAYER_CHANGE
;Z:0.2
;HEIGHT:0.2
;BEFORE_LAYER_CHANGE
;0.2
G92 E0

G1 E-.6 F2400
TIMELAPSE_TAKE_FRAME
;_SET_FAN_SPEED_CHANGING_LAYER
SET_VELOCITY_LIMIT ACCEL=500 ACCEL_TO_DECEL=250
SET_VELOCITY_LIMIT SQUARE_CORNER_VELOCITY=9
EXCLUDE_OBJECT_START NAME=Yarn_Holder_-_Both_Parts.stl_id_0_copy_0
G1 Z.2 F30000
G1 X60.987 Y48.709
G1 Z.2
G1 E.6 F2400
;TYPE:Inner wall
;WIDTH:0.499999
G1 F3600
G1 X60.799 Y48.737 E.00712
G1 X60.351 Y48.998 E.0193
G1 X60.11 Y49.324 E.01508
M73 P0 R38
G1 X60.013 Y49.615 E.01143
G1 X59.992 Y49.829 E.00803
G1 X59.992 Y54.984 E.19199
G1 X55.09 Y246.172 E7.12336
G1 X54.825 Y245.914 E.01377
G1 X53.899 Y245.272 E.04199
G1 X52.859 Y244.837 E.04199
G1 X51.989 Y244.652 E.03313
G1 X51.307 Y244.627 E.02543
G1 X50.624 Y244.652 E.02543
G1 X49.527 Y244.91 E.04199
G1 X48.508 Y245.392 E.04199
G1 X47.788 Y245.914 E.03313
G1 X47.523 Y246.172 E.01376
G1 X42.621 Y54.984 E7.12336
G1 X42.621 Y49.675 E.19772
G1 X42.503 Y49.324 E.01381
G1 X42.262 Y48.998 E.01508
G1 X41.815 Y48.737 E.0193
G1 X41.478 Y48.686 E.01268
G1 X41.034 Y48.686 E.01656
G1 X41.79 Y48.312 E.03145
G1 X43.82 Y47.53 E.08103
G1 X45.914 Y46.938 E.08103
G1 X48.053 Y46.541 E.08103
G1 X50.218 Y46.341 E.08098
G1 X52.444 Y46.346 E.0829
G1 X54.561 Y46.541 E.07919
G1 X56.699 Y46.938 E.08103
G1 X58.793 Y47.53 E.08103
G1 X60.823 Y48.312 E.08103
G1 X61.58 Y48.686 E.03145
G1 X61.135 Y48.686 E.01656
G1 X61.027 Y48.703 E.00407
G1 X61.061 Y49.155 F30000
G1 F3600
G1 X60.933 Y49.174 E.00483
G1 X60.665 Y49.33 E.01158
G1 X60.52 Y49.526 E.00905
G1 X60.45 Y49.829 E.0116
G1 X60.45 Y54.99 E.19221
G1 X55.52 Y247.478 E7.17182
G1 X55.258 Y247.041 E.01898
G1 X54.556 Y246.284 E.03845
G1 X53.713 Y245.69 E.03844
G1 X52.764 Y245.284 E.03844
G1 X51.894 Y245.099 E.03313
G1 X51.307 Y245.084 E.02188
G1 X50.719 Y245.099 E.02188
G1 X49.713 Y245.328 E.03844
G1 X48.776 Y245.761 E.03844
G1 X47.95 Y246.38 E.03845
G1 X47.355 Y247.041 E.03313
G1 X47.093 Y247.478 E.01898
G1 X42.164 Y54.99 E7.17182
G1 X42.164 Y49.829 E.19221
G1 X42.093 Y49.526 E.0116
G1 X41.949 Y49.33 E.00905
G1 X41.68 Y49.174 E.01158
G1 X41.478 Y49.143 E.00761
G1 X39.799 Y49.143 E.06252
G1 X39.61 Y49.089 E.00736
G1 X39.57 Y48.988 E.00404
G1 X39.647 Y48.862 E.00549
G1 X41.606 Y47.893 E.08141
G1 X43.676 Y47.096 E.08259
G1 X45.81 Y46.493 E.08259
G1 X47.99 Y46.087 E.08259
G1 X50.197 Y45.884 E.08256
G1 X52.465 Y45.889 E.08447
G1 X54.623 Y46.087 E.08074
G1 X56.804 Y46.493 E.08259
G1 X58.937 Y47.096 E.08259
G1 X61.007 Y47.893 E.08259
G1 X62.908 Y48.834 E.07901
G1 X63.005 Y48.914 E.0047
G1 X63.043 Y49.016 E.00403
G1 X63.022 Y49.068 E.0021
G1 X62.874 Y49.143 E.00619
G1 X61.135 Y49.143 E.06477
G1 X61.101 Y49.149 E.00129
G1 X61.135 Y49.601 F30000
;TYPE:Outer wall
G1 F3600
G1 X60.978 Y49.663 E.00629
G1 X60.907 Y49.829 E.00674
G1 X60.907 Y54.995 E.19243
G1 X55.982 Y247.129 E7.1586
;WIDTH:0.538507
G1 X55.952 Y248.013 E.03572
G1 X55.978 Y248.526 E.02072
;WIDTH:0.532252
G1 X56.041 Y249.109 E.02338
;WIDTH:0.500134
G1 X56.059 Y250.069 E.03579
;WIDTH:0.477938
G1 X55.941 Y251.055 E.03521
G1 X55.621 Y251.996 E.03522
G1 X55.111 Y252.849 E.03522
G1 X54.436 Y253.578 E.03522
G1 X53.624 Y254.15 E.03522
G1 X52.71 Y254.542 E.03522
G1 X51.736 Y254.734 E.03522
G1 X50.742 Y254.72 E.03522
G1 X49.773 Y254.499 E.03522
G1 X48.871 Y254.082 E.03522
G1 X48.076 Y253.487 E.03522
G1 X47.422 Y252.739 E.03522
G1 X46.937 Y251.871 E.03522
G1 X46.644 Y250.922 E.03522
;WIDTH:0.480574
G1 X46.547 Y249.97 E.03414
;WIDTH:0.505695
G1 X46.577 Y249.016 E.03598
;WIDTH:0.53384
G1 X46.637 Y248.514 E.02022
G1 X46.659 Y247.999 E.02061
;WIDTH:0.533581
G1 X46.63 Y247.001 E.03993
;WIDTH:0.499999
G1 X41.707 Y54.995 E7.15382
G1 X41.707 Y49.829 E.19243
M73 P1 R38
G1 X41.635 Y49.663 E.00674
G1 X41.478 Y49.601 E.00629
G1 X39.799 Y49.601 E.06252
G1 X39.414 Y49.526 E.01461
G1 X39.203 Y49.341 E.01045
G1 X39.101 Y49.079 E.01049
G1 X39.131 Y48.799 E.01045
G1 X39.231 Y48.649 E.00673
G1 X39.411 Y48.469 E.00947
G1 X41.423 Y47.474 E.0836
G1 X43.531 Y46.662 E.08416
G1 X45.705 Y46.047 E.08416
G1 X47.927 Y45.634 E.08416
G1 X50.177 Y45.427 E.08415
G1 X52.486 Y45.431 E.08603
G1 X54.686 Y45.634 E.08228
G1 X56.908 Y46.047 E.08416
G1 X59.082 Y46.662 E.08416
G1 X61.191 Y47.474 E.08416
G1 X63.111 Y48.424 E.0798
G1 X63.419 Y48.673 E.01476
G1 X63.514 Y48.937 E.01046
G1 X63.477 Y49.216 E.01047
G1 X63.315 Y49.446 E.01047
G1 X63.151 Y49.531 E.0069
G1 X62.902 Y49.601 E.00964
G1 X61.175 Y49.601 E.0643
;WIPE_START
G1 X60.978 Y49.663 E-.06195
G1 X60.907 Y49.829 E-.0543
G1 X60.907 Y51.442 E-.48375
;WIPE_END
G1 Z.4 F30000
G1 X50.067 Y245.709 Z.4
G1 Z.2
G1 E.6 F2400
G1 F3600
G1 X50.814 Y245.546 E.02848
G1 X51.751 Y245.541 E.0349
G1 X52.669 Y245.731 E.0349
G1 X53.527 Y246.107 E.0349
G1 X54.288 Y246.654 E.0349
G1 X54.918 Y247.347 E.03491
;WIDTH:0.533584
G1 X55.385 Y248.142 E.03686
;WIDTH:0.56172
G1 X55.433 Y248.226 E.00408
G1 X55.506 Y248.65 E.01821
;WIDTH:0.533707
G1 X55.579 Y249.075 E.01723
;WIDTH:0.505694
G1 X55.629 Y249.987 E.03445
;WIDTH:0.480572
G1 X55.537 Y250.876 E.03188
;WIDTH:0.47794
G1 X55.262 Y251.737 E.03201
G1 X54.815 Y252.521 E.03201
G1 X54.214 Y253.196 E.03201
G1 X53.486 Y253.73 E.03201
G1 X52.663 Y254.102 E.03201
G1 X51.781 Y254.294 E.03201
G1 X50.878 Y254.299 E.03201
G1 X49.993 Y254.116 E.03201
G1 X49.166 Y253.753 E.03201
G1 X48.433 Y253.226 E.03201
G1 X47.825 Y252.558 E.03201
G1 X47.369 Y251.778 E.03201
;WIDTH:0.477939
G1 X47.086 Y250.921 E.03201
G1 X46.987 Y250.024 E.032
;WIDTH:0.500134
G1 X47.029 Y249.127 E.03344
;WIDTH:0.532252
G1 X47.119 Y248.597 E.02142
;WIDTH:0.536595
G1 X47.218 Y248.158 E.01811
G1 X47.665 Y247.389 E.03577
;WIDTH:0.499999
G1 X48.29 Y246.686 E.03505
G1 X49.045 Y246.131 E.0349
G1 X49.899 Y245.746 E.0349
G1 X50.028 Y245.717 E.00493
;WIPE_START
G1 X50.814 Y245.546 E-.24137
G1 X51.751 Y245.541 E-.28109
G1 X52.004 Y245.593 E-.07754
;WIPE_END
G1 Z.4 F30000
G1 X60.256 Y48.849 Z.4
G1 Z.2
G1 E.6 F2400
;TYPE:Bottom surface
;WIDTH:0.500918
G1 F6300
G1 X59.704 Y48.298 E.02909
G1 X58.654 Y47.895 E.04199
G1 X59.823 Y49.064 E.06173
G1 X59.762 Y49.148 E.00388
G1 X59.636 Y49.524 E.01481
G1 X57.751 Y47.639 E.09948
G1 X56.848 Y47.384 E.03503
G1 X59.604 Y50.14 E.14549
G1 X59.604 Y50.788 E.02417
G1 X56.024 Y47.208 E.18896
G1 X55.228 Y47.06 E.0302
G1 X59.604 Y51.436 E.23095
G1 X59.604 Y52.083 E.02417
G1 X54.44 Y46.92 E.27254
G1 X53.727 Y46.854 E.02674
G1 X59.604 Y52.731 E.31019
G1 X59.604 Y53.379 E.02417
G1 X53.013 Y46.788 E.34785
G1 X52.311 Y46.734 E.02628
G1 X59.604 Y54.027 E.38491
G1 X59.604 Y54.674 E.02417
G1 X51.662 Y46.733 E.41916
G1 X51.013 Y46.731 E.02422
G1 X59.595 Y55.313 E.45296
G1 X59.579 Y55.945 E.02358
G1 X50.364 Y46.73 E.48636
G1 X49.76 Y46.773 E.02261
G1 X59.563 Y56.576 E.5174
G1 X59.547 Y57.208 E.02358
G1 X49.167 Y46.828 E.54784
G1 X48.574 Y46.883 E.02223
G1 X59.531 Y57.839 E.57829
G1 X59.514 Y58.471 E.02358
G1 X47.991 Y46.947 E.60822
G1 X47.445 Y47.049 E.02073
G1 X59.498 Y59.102 E.63619
G1 X59.482 Y59.734 E.02358
G1 X46.898 Y47.15 E.66416
G1 X46.352 Y47.252 E.02073
G1 X59.466 Y60.365 E.69213
G1 X59.45 Y60.997 E.02358
G1 X45.821 Y47.368 E.71932
G1 X45.316 Y47.511 E.01958
G1 X59.433 Y61.628 E.74512
G1 X59.417 Y62.26 E.02358
G1 X44.811 Y47.654 E.77091
G1 X44.306 Y47.797 E.01958
G1 X59.401 Y62.892 E.79671
G1 X59.385 Y63.523 E.02358
G1 X43.812 Y47.95 E.82195
G1 X43.344 Y48.13 E.0187
G1 X59.369 Y64.155 E.84577
G1 X59.352 Y64.786 E.02358
G1 X42.876 Y48.31 E.8696
G1 X42.409 Y48.49 E.0187
G1 X59.336 Y65.418 E.89343
G1 X59.32 Y66.049 E.02358
G1 X43.001 Y49.73 E.86134
G1 X43.009 Y50.386 E.0245
G1 X59.304 Y66.681 E.86003
G1 X59.288 Y67.312 E.02358
G1 X43.009 Y51.034 E.85917
G1 X43.009 Y51.681 E.02417
G1 X59.272 Y67.944 E.85832
G1 X59.255 Y68.575 E.02358
G1 X43.009 Y52.329 E.85747
G1 X43.009 Y52.977 E.02417
G1 X59.239 Y69.207 E.85661
G1 X59.223 Y69.838 E.02358
G1 X43.009 Y53.625 E.85576
G1 X43.009 Y54.272 E.02417
G1 X59.207 Y70.47 E.8549
G1 X59.191 Y71.101 E.02358
G1 X43.009 Y54.92 E.85405
G1 X43.025 Y55.583 E.02476
G1 X59.174 Y71.733 E.85237
G1 X59.158 Y72.364 E.02358
G1 X43.042 Y56.248 E.85062
G1 X43.059 Y56.913 E.02482
G1 X59.142 Y72.996 E.84887
G1 X59.126 Y73.627 E.02358
G1 X43.076 Y57.577 E.84711
G1 X43.093 Y58.242 E.02482
G1 X59.11 Y74.259 E.84536
G1 X59.093 Y74.89 E.02358
G1 X43.11 Y58.907 E.8436
G1 X43.127 Y59.572 E.02482
G1 X59.077 Y75.522 E.84185
G1 X59.061 Y76.153 E.02358
G1 X43.144 Y60.236 E.84009
G1 X43.161 Y60.901 E.02482
G1 X59.045 Y76.785 E.83834
G1 X59.029 Y77.416 E.02358
G1 X43.178 Y61.566 E.83659
G1 X43.195 Y62.231 E.02482
G1 X59.012 Y78.048 E.83483
G1 X58.996 Y78.679 E.02358
G1 X43.212 Y62.895 E.83308
G1 X43.229 Y63.56 E.02482
G1 X58.98 Y79.311 E.83132
G1 X58.964 Y79.942 E.02358
G1 X43.246 Y64.225 E.82957
M73 P2 R38
G1 X43.263 Y64.89 E.02482
G1 X58.948 Y80.574 E.82781
G1 X58.931 Y81.205 E.02358
G1 X43.28 Y65.554 E.82606
G1 X43.298 Y66.219 E.02482
G1 X58.915 Y81.837 E.82431
G1 X58.899 Y82.468 E.02358
G1 X43.315 Y66.884 E.82255
G1 X43.332 Y67.549 E.02482
G1 X58.883 Y83.1 E.8208
G1 X58.867 Y83.732 E.02358
G1 X43.349 Y68.213 E.81904
G1 X43.366 Y68.878 E.02482
G1 X58.851 Y84.363 E.81729
G1 X58.834 Y84.995 E.02358
G1 X43.383 Y69.543 E.81554
G1 X43.4 Y70.208 E.02482
G1 X58.818 Y85.626 E.81378
G1 X58.802 Y86.258 E.02358
G1 X43.417 Y70.872 E.81203
G1 X43.434 Y71.537 E.02482
G1 X58.786 Y86.889 E.81027
G1 X58.77 Y87.521 E.02358
G1 X43.451 Y72.202 E.80852
G1 X43.468 Y72.867 E.02482
G1 X58.753 Y88.152 E.80676
G1 X58.737 Y88.784 E.02358
G1 X43.485 Y73.531 E.80501
G1 X43.502 Y74.196 E.02482
G1 X58.721 Y89.415 E.80326
G1 X58.705 Y90.047 E.02358
G1 X43.519 Y74.861 E.8015
G1 X43.536 Y75.526 E.02482
G1 X58.689 Y90.678 E.79975
G1 X58.672 Y91.31 E.02358
G1 X43.553 Y76.19 E.79799
G1 X43.57 Y76.855 E.02482
G1 X58.656 Y91.941 E.79624
G1 X58.64 Y92.573 E.02358
G1 X43.587 Y77.52 E.79448
G1 X43.604 Y78.185 E.02482
G1 X58.624 Y93.204 E.79273
G1 X58.608 Y93.836 E.02358
G1 X43.621 Y78.849 E.79098
G1 X43.638 Y79.514 E.02482
G1 X58.591 Y94.467 E.78922
G1 X58.575 Y95.099 E.02358
G1 X43.655 Y80.179 E.78747
G1 X43.672 Y80.844 E.02482
G1 X58.559 Y95.73 E.78571
G1 X58.543 Y96.362 E.02358
G1 X43.69 Y81.508 E.78396
G1 X43.707 Y82.173 E.02482
G1 X58.527 Y96.993 E.7822
G1 X58.51 Y97.625 E.02358
G1 X43.724 Y82.838 E.78045
G1 X43.741 Y83.503 E.02482
G1 X58.494 Y98.256 E.7787
G1 X58.478 Y98.888 E.02358
G1 X43.758 Y84.167 E.77694
G1 X43.775 Y84.832 E.02482
G1 X58.462 Y99.519 E.77519
G1 X58.446 Y100.151 E.02358
G1 X43.792 Y85.497 E.77343
G1 X43.809 Y86.162 E.02482
G1 X58.43 Y100.782 E.77168
M73 P2 R37
G1 X58.413 Y101.414 E.02358
G1 X43.826 Y86.826 E.76992
G1 X43.843 Y87.491 E.02482
G1 X58.397 Y102.045 E.76817
G1 X58.381 Y102.677 E.02358
G1 X43.86 Y88.156 E.76642
G1 X43.877 Y88.821 E.02482
G1 X58.365 Y103.308 E.76466
G1 X58.349 Y103.94 E.02358
G1 X43.894 Y89.485 E.76291
G1 X43.911 Y90.15 E.02482
G1 X58.332 Y104.571 E.76115
G1 X58.316 Y105.203 E.02358
G1 X43.928 Y90.815 E.7594
G1 X43.945 Y91.48 E.02482
G1 X58.3 Y105.835 E.75765
G1 X58.284 Y106.466 E.02358
G1 X43.962 Y92.144 E.75589
G1 X43.979 Y92.809 E.02482
G1 X58.268 Y107.098 E.75414
G1 X58.251 Y107.729 E.02358
G1 X43.996 Y93.474 E.75238
G1 X44.013 Y94.139 E.02482
G1 X58.235 Y108.361 E.75063
G1 X58.219 Y108.992 E.02358
G1 X44.03 Y94.803 E.74887
G1 X44.047 Y95.468 E.02482
G1 X58.203 Y109.624 E.74712
G1 X58.187 Y110.255 E.02358
G1 X44.065 Y96.133 E.74537
G1 X44.082 Y96.798 E.02482
G1 X58.17 Y110.887 E.74361
G1 X58.154 Y111.518 E.02358
G1 X44.099 Y97.462 E.74186
G1 X44.116 Y98.127 E.02482
G1 X58.138 Y112.15 E.7401
G1 X58.122 Y112.781 E.02358
G1 X44.133 Y98.792 E.73835
G1 X44.15 Y99.457 E.02482
G1 X58.106 Y113.413 E.73659
G1 X58.089 Y114.044 E.02358
G1 X44.167 Y100.121 E.73484
G1 X44.184 Y100.786 E.02482
G1 X58.073 Y114.676 E.73309
M73 P3 R37
G1 X58.057 Y115.307 E.02358
G1 X44.201 Y101.451 E.73133
G1 X44.218 Y102.116 E.02482
G1 X58.041 Y115.939 E.72958
G1 X58.025 Y116.57 E.02358
G1 X44.235 Y102.78 E.72782
G1 X44.252 Y103.445 E.02482
G1 X58.009 Y117.202 E.72607
G1 X57.992 Y117.833 E.02358
G1 X44.269 Y104.11 E.72431
G1 X44.286 Y104.775 E.02482
G1 X57.976 Y118.465 E.72256
G1 X57.96 Y119.096 E.02358
G1 X44.303 Y105.44 E.72081
G1 X44.32 Y106.104 E.02482
G1 X57.944 Y119.728 E.71905
G1 X57.928 Y120.359 E.02358
G1 X44.337 Y106.769 E.7173
G1 X44.354 Y107.434 E.02482
G1 X57.911 Y120.991 E.71554
G1 X57.895 Y121.622 E.02358
G1 X44.371 Y108.099 E.71379
G1 X44.388 Y108.763 E.02482
G1 X57.879 Y122.254 E.71203
G1 X57.863 Y122.885 E.02358
G1 X44.405 Y109.428 E.71028
G1 X44.422 Y110.093 E.02482
G1 X57.847 Y123.517 E.70853
G1 X57.83 Y124.148 E.02358
G1 X44.439 Y110.758 E.70677
G1 X44.457 Y111.422 E.02482
G1 X57.814 Y124.78 E.70502
G1 X57.798 Y125.411 E.02358
G1 X44.474 Y112.087 E.70326
G1 X44.491 Y112.752 E.02482
G1 X57.782 Y126.043 E.70151
G1 X57.766 Y126.675 E.02358
G1 X44.508 Y113.417 E.69976
G1 X44.525 Y114.081 E.02482
G1 X57.749 Y127.306 E.698
G1 X57.733 Y127.938 E.02358
G1 X44.542 Y114.746 E.69625
G1 X44.559 Y115.411 E.02482
G1 X57.717 Y128.569 E.69449
G1 X57.701 Y129.201 E.02358
G1 X44.576 Y116.076 E.69274
G1 X44.593 Y116.74 E.02482
G1 X57.685 Y129.832 E.69098
G1 X57.668 Y130.464 E.02358
G1 X44.61 Y117.405 E.68923
G1 X44.627 Y118.07 E.02482
G1 X57.652 Y131.095 E.68748
G1 X57.636 Y131.727 E.02358
G1 X44.644 Y118.735 E.68572
G1 X44.661 Y119.399 E.02482
G1 X57.62 Y132.358 E.68397
G1 X57.604 Y132.99 E.02358
G1 X44.678 Y120.064 E.68221
G1 X44.695 Y120.729 E.02482
G1 X57.588 Y133.621 E.68046
G1 X57.571 Y134.253 E.02358
G1 X44.712 Y121.394 E.6787
G1 X44.729 Y122.058 E.02482
G1 X57.555 Y134.884 E.67695
G1 X57.539 Y135.516 E.02358
G1 X44.746 Y122.723 E.6752
G1 X44.763 Y123.388 E.02482
G1 X57.523 Y136.147 E.67344
G1 X57.507 Y136.779 E.02358
G1 X44.78 Y124.053 E.67169
G1 X44.797 Y124.717 E.02482
G1 X57.49 Y137.41 E.66993
G1 X57.474 Y138.042 E.02358
G1 X44.814 Y125.382 E.66818
G1 X44.832 Y126.047 E.02482
G1 X57.458 Y138.673 E.66642
G1 X57.442 Y139.305 E.02358
G1 X44.849 Y126.712 E.66467
G1 X44.866 Y127.376 E.02482
G1 X57.426 Y139.936 E.66292
G1 X57.409 Y140.568 E.02358
G1 X44.883 Y128.041 E.66116
G1 X44.9 Y128.706 E.02482
G1 X57.393 Y141.199 E.65941
G1 X57.377 Y141.831 E.02358
G1 X44.917 Y129.371 E.65765
