;Sliced by ideaMaker 5.1.4.8480, 2025-03-11 18:58:10 UTC+0100
;Slicer Version: 5.1.4.8480
;Dimension: 300.000 300.000 300.000 0.400 0.400
;Plate Shape: 0
;Origin Center: 0
;Extruder Offset #1: 0.000 0.000
;Filament Diameter #1: 1.750
;Filament Diameter #2: 1.750
;Filament Compensation #1: 90.000
;Filament Compensation #2: 90.000
;Filament Density #1: 1240.000
;Filament Density #2: 1240.000
;Filament Type #1: PLA
;Filament Type #2: PLA
;Filament Name #1: [Raise3D] Premium PLA 1.75mm
;Filament Name #2: [Raise3D] Premium PLA 1.75mm
;Printer Type: RAISE3D Pro3
;Firmware: RepRapFirmware
;Bounding Box: 117.881 182.118 119.589 180.411 0.000 5.050
;Model Gap: 0.000
M221 T0 S90.00
M140 S55.00
M104 T0 S215.00
M109 T0 S215.00
T0
M190 S55.00
M572 D0 S0.03
M572 D1 S0.03
G21
G90
M82
M107
G28
G1 Z0 F500
G92 E0
G1 Z0.2 F400
G1 X60 Y-2 F800
G1 X140 Y-2 E12 F200
G1 Z5 E15 F200
G92 E0
G1 F9000.0
M117 Printing...
M1001
;TOTAL_NUM: 1
;PRINTING_TIME: 0
;REMAINING_TIME: 1835
;LAYER:0
;Z:0.300
;HEIGHT:0.300
M106 S0
M106 P2 S0
;PRINTING: NON-OBJECT
;PRINTING_ID: -1
G1 F2400 E-0.5000
M204 T1500.00
G0 F9000 X129.762 Y125.070
G0 F300 Z0.300
M204 P1000.00
;TYPE:SKIRT
;WIDTH:0.440
;FLOW:95.0
G1 F1500 E0.0000
G1 F900 X130.426 Y124.455 E0.0472
G1 X131.363 Y123.712 E0.1095
G1 X131.964 Y123.333 E0.1466
G1 X132.584 Y123.064 E0.1818
G1 X133.214 Y122.912 E0.2156
G1 X133.720 Y122.854 E0.2421
G1 X134.344 Y122.881 E0.2747
G1 X134.514 Y122.531 E0.2950
G1 X134.844 Y122.023 E0.3266
G1 X135.190 Y121.631 E0.3538
G1 X135.527 Y121.339 E0.3771
G1 X136.147 Y120.911 E0.4164
G1 X136.553 Y120.715 E0.4399
G1 X137.424 Y120.363 E0.4888
G1 X138.515 Y120.013 E0.5486
G1 X139.452 Y119.793 E0.5988
G1 X140.310 Y119.660 E0.6440
G1 X141.024 Y119.602 E0.6814
G1 X141.964 Y119.589 E0.7304
G1 X142.344 Y119.607 E0.7502
G1 X143.271 Y119.705 E0.7988
G1 X143.671 Y119.772 E0.8200
G1 X144.575 Y119.978 E0.8683
G1 X145.509 Y120.271 E0.9193
G1 X146.565 Y120.712 E0.9790
G1 X146.893 Y120.872 E0.9980
G1 X147.917 Y121.447 E1.0593
G1 X148.585 Y121.887 E1.1010
G1 X149.203 Y122.342 E1.1410
G1 X149.997 Y123.012 E1.1951
G1 X150.816 Y122.328 E1.2508
G1 X151.446 Y121.866 E1.2915
G1 X152.116 Y121.427 E1.3333
G1 X153.141 Y120.856 E1.3944
G1 X154.246 Y120.366 E1.4574
G1 X155.329 Y120.000 E1.5170
G1 X155.788 Y119.884 E1.5417
G1 X156.600 Y119.723 E1.5849
G1 X157.174 Y119.649 E1.6151
G1 X158.053 Y119.590 E1.6610
G1 X159.068 Y119.606 E1.7139
G1 X160.275 Y119.746 E1.7773
G1 X161.210 Y119.939 E1.8270
G1 X162.378 Y120.292 E1.8906
G1 X163.449 Y120.716 E1.9507
G1 X164.155 Y121.098 E1.9926
G1 X164.572 Y121.407 E2.0196
G1 X165.000 Y121.840 E2.0514
G1 X165.365 Y122.322 E2.0829
G1 X165.660 Y122.882 E2.1159
G1 X165.822 Y122.861 E2.1244
G1 X166.329 Y122.856 E2.1508
G1 X166.676 Y122.895 E2.1690
G1 X167.269 Y123.017 E2.2006
G1 X168.009 Y123.319 E2.2423
G1 X168.550 Y123.646 E2.2752
G1 X168.924 Y123.924 E2.2995
G1 X169.562 Y124.444 E2.3424
G1 X170.174 Y125.006 E2.3857
G1 X170.744 Y125.601 E2.4287
G1 X171.170 Y126.104 E2.4631
G1 X171.856 Y127.058 E2.5243
G1 X172.031 Y127.333 E2.5413
G1 X172.461 Y128.106 E2.5874
G1 X172.823 Y128.900 E2.6329
G1 X173.031 Y129.450 E2.6636
G1 X173.376 Y130.639 E2.7281
G1 X173.533 Y131.439 E2.7706
G1 X173.616 Y132.055 E2.8030
G1 X173.687 Y133.102 E2.8578
G1 X173.685 Y133.942 E2.9015
G1 X173.651 Y134.574 E2.9345
G1 X173.488 Y135.898 E3.0041
G1 X173.370 Y136.505 E3.0363
G1 X173.849 Y136.667 E3.0627
G1 X174.551 Y136.945 E3.1021
G1 X175.207 Y137.242 E3.1396
G1 X175.798 Y137.543 E3.1742
G1 X176.800 Y138.141 E3.2350
G1 X177.807 Y138.875 E3.3000
G1 X178.071 Y139.094 E3.3179
G1 X178.746 Y139.721 E3.3659
G1 X179.432 Y140.471 E3.4189
G1 X180.167 Y141.463 E3.4833
G1 X180.364 Y141.771 E3.5023
G1 X180.794 Y142.536 E3.5481
G1 X180.964 Y142.884 E3.5683
G1 X181.441 Y144.054 E3.6341
G1 X181.711 Y144.950 E3.6829
G1 X181.916 Y145.865 E3.7318
G1 X182.089 Y147.048 E3.7941
G1 X182.115 Y147.643 E3.8252
G1 X182.052 Y148.301 E3.8596
G1 X181.856 Y148.996 E3.8973
G1 X181.633 Y149.509 E3.9265
G1 X181.477 Y149.772 E3.9424
G1 X181.312 Y149.993 E3.9568
G1 X181.456 Y150.195 E3.9697
G1 X181.681 Y150.589 E3.9934
G1 X181.874 Y151.049 E4.0194
G1 X182.007 Y151.483 E4.0430
G1 X182.075 Y151.843 E4.0621
G1 X182.118 Y152.487 E4.0958
G1 X182.045 Y153.346 E4.1407
G1 X181.921 Y154.129 E4.1821
G1 X181.785 Y154.765 E4.2160
G1 X181.563 Y155.578 E4.2599
G1 X181.293 Y156.353 E4.3027
G1 X180.975 Y157.102 E4.3451
G1 X180.555 Y157.909 E4.3926
G1 X179.947 Y158.863 E4.4515
G1 X179.392 Y159.577 E4.4987
G1 X178.974 Y160.046 E4.5314
G1 X178.169 Y160.822 E4.5897
G1 X177.519 Y161.353 E4.6335
G1 X177.009 Y161.721 E4.6663
G1 X176.092 Y162.293 E4.7226
G1 X175.294 Y162.715 E4.7697
G1 X174.497 Y163.078 E4.8153
G1 X173.693 Y163.391 E4.8603
G1 X173.375 Y163.497 E4.8778
G1 X173.447 Y163.849 E4.8965
G1 X173.582 Y164.736 E4.9433
G1 X173.642 Y165.322 E4.9740
G1 X173.687 Y166.114 E5.0154
G1 X173.671 Y167.277 E5.0760
G1 X173.647 Y167.611 E5.0935
G1 X173.538 Y168.523 E5.1414
G1 X173.475 Y168.881 E5.1603
G1 X173.270 Y169.777 E5.2082
G1 X173.167 Y170.134 E5.2276
G1 X172.864 Y170.994 E5.2751
G1 X172.699 Y171.386 E5.2973
G1 X172.294 Y172.208 E5.3451
G1 X171.831 Y172.986 E5.3923
G1 X171.068 Y174.019 E5.4592
G1 X170.425 Y174.741 E5.5096
G1 X169.604 Y175.519 E5.5686
G1 X168.600 Y176.314 E5.6354
G1 X168.036 Y176.667 E5.6701
G1 X167.416 Y176.936 E5.7053
G1 X166.786 Y177.088 E5.7391
G1 X166.280 Y177.146 E5.7656
G1 X165.656 Y177.119 E5.7982
G1 X165.486 Y177.469 E5.8185
G1 X165.114 Y178.032 E5.8537
G1 X164.810 Y178.369 E5.8773
G1 X164.473 Y178.661 E5.9006
G1 X163.853 Y179.089 E5.9399
G1 X163.443 Y179.286 E5.9636
G1 X162.306 Y179.734 E6.0273
G1 X161.224 Y180.057 E6.0862
G1 X160.337 Y180.245 E6.1334
G1 X159.695 Y180.339 E6.1673
G1 X159.209 Y180.385 E6.1927
G1 X158.067 Y180.411 E6.2523
G1 X157.656 Y180.393 E6.2737
G1 X156.729 Y180.295 E6.3223
G1 X156.329 Y180.228 E6.3435
G1 X155.425 Y180.022 E6.3918
G1 X154.491 Y179.729 E6.4428
G1 X153.412 Y179.277 E6.5038
G1 X153.110 Y179.129 E6.5214
G1 X152.265 Y178.662 E6.5717
G1 X151.399 Y178.102 E6.6255
G1 X150.924 Y177.755 E6.6561
G1 X150.373 Y177.316 E6.6929
G1 X150.005 Y176.987 E6.7186
G1 X149.750 Y177.214 E6.7364
G1 X149.055 Y177.770 E6.7828
G1 X148.409 Y178.234 E6.8243
G1 X147.679 Y178.696 E6.8693
G1 X146.873 Y179.138 E6.9172
G1 X145.720 Y179.648 E6.9830
G1 X144.893 Y179.934 E7.0286
G1 X144.190 Y180.120 E7.0665
G1 X143.400 Y180.277 E7.1085
G1 X142.826 Y180.351 E7.1387
G1 X141.947 Y180.410 E7.1846
G1 X140.948 Y180.396 E7.2367
G1 X140.610 Y180.369 E7.2543
G1 X139.473 Y180.211 E7.3142
G1 X138.513 Y179.987 E7.3656
G1 X137.388 Y179.625 E7.4272
G1 X136.509 Y179.265 E7.4767
G1 X135.972 Y178.984 E7.5083
G1 X135.375 Y178.545 E7.5470
G1 X134.934 Y178.081 E7.5803
G1 X134.596 Y177.615 E7.6103
G1 X134.340 Y177.118 E7.6395
G1 X134.178 Y177.139 E7.6480
G1 X133.724 Y177.146 E7.6717
G1 X133.209 Y177.088 E7.6987
G1 X132.657 Y176.961 E7.7282
G1 X132.077 Y176.724 E7.7609
G1 X131.442 Y176.348 E7.7994
G1 X130.588 Y175.685 E7.8557
G1 X129.996 Y175.158 E7.8971
G1 X129.413 Y174.571 E7.9402
G1 X128.830 Y173.896 E7.9867
G1 X128.144 Y172.942 E8.0479
G1 X127.650 Y172.107 E8.0985
G1 X127.263 Y171.303 E8.1451
G1 X126.890 Y170.314 E8.2002
G1 X126.625 Y169.365 E8.2515
G1 X126.500 Y168.752 E8.2841
G1 X126.365 Y167.756 E8.3365
G1 X126.312 Y166.867 E8.3830
G1 X126.314 Y166.080 E8.4240
G1 X126.369 Y165.208 E8.4696
G1 X126.512 Y164.103 E8.5276
G1 X126.629 Y163.495 E8.5599
G1 X126.151 Y163.333 E8.5862
G1 X125.449 Y163.055 E8.6256
G1 X124.811 Y162.767 E8.6621
G1 X124.202 Y162.457 E8.6977
G1 X123.222 Y161.873 E8.7572
G1 X122.193 Y161.125 E8.8235
G1 X121.929 Y160.906 E8.8414
G1 X121.254 Y160.279 E8.8894
G1 X120.568 Y159.529 E8.9424
G1 X119.833 Y158.537 E9.0068
G1 X119.636 Y158.229 E9.0259
G1 X119.206 Y157.464 E9.0716
G1 X119.036 Y157.116 E9.0918
G1 X118.670 Y156.249 E9.1409
G1 X118.558 Y155.942 E9.1579
G1 X118.291 Y155.055 E9.2062
G1 X118.041 Y153.898 E9.2679
G1 X117.912 Y152.957 E9.3174
G1 X117.885 Y152.358 E9.3487
G1 X117.948 Y151.699 E9.3832
G1 X118.144 Y151.004 E9.4209
G1 X118.367 Y150.491 E9.4500
G1 X118.523 Y150.228 E9.4660
G1 X118.688 Y150.007 E9.4803
G1 X118.544 Y149.805 E9.4933
G1 X118.319 Y149.411 E9.5169
G1 X118.126 Y148.951 E9.5429
G1 X117.993 Y148.517 E9.5666
G1 X117.925 Y148.157 E9.5857
G1 X117.881 Y147.582 E9.6158
G1 X117.955 Y146.654 E9.6643
G1 X118.079 Y145.871 E9.7056
G1 X118.215 Y145.235 E9.7395
G1 X118.437 Y144.422 E9.7835
G1 X118.707 Y143.647 E9.8263
G1 X119.025 Y142.898 E9.8687
G1 X119.464 Y142.058 E9.9181
G1 X120.077 Y141.104 E9.9772
G1 X120.608 Y140.423 E10.0222
G1 X121.026 Y139.954 E10.0550
G1 X121.858 Y139.154 E10.1152
G1 X122.481 Y138.647 E10.1570
G1 X122.991 Y138.279 E10.1898
G1 X123.881 Y137.723 E10.2445
G1 X124.706 Y137.285 E10.2932
G1 X125.503 Y136.922 E10.3389
G1 X126.286 Y136.617 E10.3827
G1 X126.627 Y136.503 E10.4015
G1 X126.529 Y136.011 E10.4276
G1 X126.418 Y135.264 E10.4670
G1 X126.358 Y134.674 E10.4979
G1 X126.309 Y133.643 E10.5517
G1 X126.330 Y132.707 E10.6005
G1 X126.462 Y131.477 E10.6650
G1 X126.520 Y131.142 E10.6827
G1 X126.730 Y130.223 E10.7319
G1 X126.833 Y129.866 E10.7513
G1 X127.145 Y128.983 E10.8001
G1 X127.303 Y128.609 E10.8213
G1 X127.843 Y127.543 E10.8836
G1 X128.372 Y126.717 E10.9347
G1 X129.103 Y125.775 E10.9969
G1 X129.762 Y125.070 E11.0472
G0 F9000 X130.062 Y125.392
G1 F900 X130.699 Y124.800 E11.0925
G1 X131.636 Y124.057 E11.1549
G1 X132.143 Y123.735 E11.1862
G1 X132.687 Y123.492 E11.2172
G1 X133.317 Y123.340 E11.2510
G1 X133.768 Y123.291 E11.2747
G1 X134.221 Y123.306 E11.2983
G1 X134.623 Y123.373 E11.3195
G1 X134.667 Y123.228 E11.3274
G1 X134.883 Y122.771 E11.3538
G1 X135.213 Y122.263 E11.3854
G1 X135.517 Y121.926 E11.4090
G1 X135.780 Y121.699 E11.4272
G1 X136.338 Y121.307 E11.4627
G1 X136.719 Y121.123 E11.4848
G1 X137.558 Y120.782 E11.5320
G1 X138.649 Y120.432 E11.5917
G1 X139.520 Y120.228 E11.6384
G1 X140.346 Y120.099 E11.6819
G1 X141.060 Y120.041 E11.7193
G1 X141.943 Y120.029 E11.7653
G1 X142.323 Y120.047 E11.7852
G1 X143.199 Y120.139 E11.8311
G1 X143.574 Y120.201 E11.8509
G1 X144.444 Y120.398 E11.8974
G1 X145.339 Y120.677 E11.9463
G1 X146.395 Y121.118 E12.0059
G1 X146.678 Y121.256 E12.0224
G1 X147.702 Y121.831 E12.0836
G1 X148.342 Y122.254 E12.1236
G1 X148.924 Y122.683 E12.1613
G1 X149.506 Y123.159 E12.2005
G1 X149.994 Y123.604 E12.2349
G1 X150.543 Y123.115 E12.2732
G1 X151.076 Y122.683 E12.3090
G1 X151.688 Y122.234 E12.3486
G1 X152.331 Y121.811 E12.3887
G1 X153.319 Y121.258 E12.4477
G1 X154.424 Y120.768 E12.5108
G1 X155.437 Y120.427 E12.5665
G1 X155.896 Y120.311 E12.5912
G1 X156.657 Y120.159 E12.6316
G1 X157.203 Y120.088 E12.6603
G1 X158.082 Y120.029 E12.7063
G1 X159.018 Y120.043 E12.7551
G1 X160.187 Y120.177 E12.8164
G1 X161.083 Y120.360 E12.8641
G1 X162.216 Y120.701 E12.9258
G1 X163.287 Y121.125 E12.9858
G1 X163.944 Y121.484 E13.0249
G1 X164.306 Y121.758 E13.0485
G1 X164.649 Y122.106 E13.0740
G1 X165.014 Y122.588 E13.1055
G1 X165.254 Y123.050 E13.1327
G1 X165.375 Y123.372 E13.1506
G1 X165.829 Y123.301 E13.1746
G1 X166.283 Y123.294 E13.1982
G1 X166.587 Y123.326 E13.2142
G1 X167.180 Y123.448 E13.2457
G1 X167.838 Y123.725 E13.2829
G1 X168.288 Y124.000 E13.3104
G1 X168.647 Y124.266 E13.3337
G1 X169.265 Y124.768 E13.3752
G1 X169.856 Y125.310 E13.4171
G1 X170.426 Y125.905 E13.4600
G1 X170.813 Y126.361 E13.4912
G1 X171.485 Y127.294 E13.5511
G1 X171.646 Y127.547 E13.5668
G1 X172.076 Y128.320 E13.6129
G1 X172.422 Y129.082 E13.6565
G1 X172.619 Y129.605 E13.6857
G1 X172.944 Y130.724 E13.7464
G1 X173.101 Y131.524 E13.7889
G1 X173.177 Y132.085 E13.8184
G1 X173.248 Y133.132 E13.8731
G1 X173.246 Y133.919 E13.9142
G1 X173.214 Y134.521 E13.9456
G1 X173.056 Y135.814 E14.0135
G1 X172.865 Y136.799 E14.0658
G1 X173.687 Y137.076 E14.1110
G1 X174.370 Y137.346 E14.1493
G1 X175.008 Y137.634 E14.1858
G1 X175.573 Y137.921 E14.2189
G1 X176.553 Y138.505 E14.2783
G1 X176.810 Y138.679 E14.2945
G1 X177.526 Y139.214 E14.3411
G1 X177.790 Y139.433 E14.3590
G1 X178.447 Y140.043 E14.4057
G1 X179.079 Y140.733 E14.4545
G1 X179.796 Y141.700 E14.5173
G1 X179.993 Y142.008 E14.5364
G1 X180.410 Y142.751 E14.5808
G1 X180.569 Y143.077 E14.5997
G1 X181.020 Y144.181 E14.6619
G1 X181.282 Y145.047 E14.7090
G1 X181.481 Y145.929 E14.7562
G1 X181.649 Y147.067 E14.8161
G1 X181.675 Y147.662 E14.8472
G1 X181.614 Y148.256 E14.8783
G1 X181.434 Y148.873 E14.9118
G1 X181.252 Y149.288 E14.9355
G1 X181.124 Y149.509 E14.9488
G1 X180.756 Y150.002 E14.9808
G1 X180.845 Y150.097 E14.9876
G1 X181.074 Y150.413 E15.0080
G1 X181.299 Y150.807 E15.0316
G1 X181.453 Y151.178 E15.0526
G1 X181.586 Y151.612 E15.0762
G1 X181.642 Y151.921 E15.0926
G1 X181.680 Y152.450 E15.1203
G1 X181.610 Y153.277 E15.1635
G1 X181.486 Y154.060 E15.2049
G1 X181.361 Y154.649 E15.2363
G1 X181.147 Y155.433 E15.2786
G1 X180.877 Y156.208 E15.3214
G1 X180.570 Y156.930 E15.3623
G1 X180.165 Y157.705 E15.4079
G1 X179.576 Y158.626 E15.4649
G1 X179.063 Y159.285 E15.5084
G1 X178.669 Y159.729 E15.5394
G1 X177.864 Y160.505 E15.5977
G1 X177.261 Y160.997 E15.6383
G1 X176.776 Y161.348 E15.6695
G1 X175.886 Y161.904 E15.7242
G1 X175.088 Y162.326 E15.7712
G1 X174.337 Y162.668 E15.8143
G1 X173.554 Y162.973 E15.8581
G1 X172.865 Y163.202 E15.8959
G1 X173.012 Y163.915 E15.9339
G1 X173.144 Y164.782 E15.9796
G1 X173.203 Y165.347 E16.0092
G1 X173.247 Y166.108 E16.0490
G1 X173.232 Y167.246 E16.1083
G1 X173.210 Y167.559 E16.1247
G1 X173.104 Y168.448 E16.1713
G1 X173.046 Y168.783 E16.1891
G1 X172.847 Y169.655 E16.2357
G1 X172.744 Y170.012 E16.2551
G1 X172.449 Y170.847 E16.3012
G1 X172.304 Y171.192 E16.3207
G1 X171.916 Y171.983 E16.3667
G1 X171.453 Y172.761 E16.4139
G1 X170.739 Y173.727 E16.4765
G1 X170.122 Y174.422 E16.5249
G1 X169.301 Y175.200 E16.5839
G1 X168.364 Y175.943 E16.6463
G1 X167.857 Y176.265 E16.6776
G1 X167.313 Y176.508 E16.7086
G1 X166.683 Y176.660 E16.7424
G1 X166.232 Y176.709 E16.7661
G1 X165.779 Y176.694 E16.7897
G1 X165.377 Y176.627 E16.8110
G1 X165.333 Y176.772 E16.8189
G1 X165.117 Y177.229 E16.8452
G1 X164.787 Y177.737 E16.8768
G1 X164.483 Y178.074 E16.9005
G1 X164.220 Y178.301 E16.9186
G1 X163.662 Y178.693 E16.9541
G1 X163.281 Y178.877 E16.9762
G1 X162.180 Y179.312 E17.0379
G1 X161.098 Y179.635 E17.0968
G1 X160.246 Y179.815 E17.1422
G1 X159.654 Y179.901 E17.1734
G1 X159.168 Y179.947 E17.1988
G1 X158.057 Y179.971 E17.2567
G1 X157.677 Y179.953 E17.2766
G1 X156.801 Y179.861 E17.3225
G1 X156.426 Y179.799 E17.3423
G1 X155.556 Y179.602 E17.3888
G1 X154.661 Y179.323 E17.4377
G1 X153.605 Y178.882 E17.4974
G1 X153.322 Y178.744 E17.5138
G1 X152.504 Y178.293 E17.5625
G1 X151.658 Y177.746 E17.6150
G1 X151.198 Y177.411 E17.6447
G1 X150.647 Y176.972 E17.6814
G1 X150.006 Y176.396 E17.7263
G1 X149.457 Y176.885 E17.7646
G1 X148.798 Y177.413 E17.8087
G1 X148.173 Y177.862 E17.8488
G1 X147.467 Y178.310 E17.8924
G1 X146.681 Y178.742 E17.9391
G1 X146.399 Y178.879 E17.9555
G1 X145.576 Y179.232 E18.0022
G1 X144.749 Y179.518 E18.0478
G1 X144.104 Y179.689 E18.0826
G1 X143.343 Y179.841 E18.1230
G1 X142.797 Y179.912 E18.1518
G1 X141.918 Y179.971 E18.1977
G1 X140.982 Y179.957 E18.2465
G1 X140.671 Y179.933 E18.2628
G1 X139.534 Y179.775 E18.3226
G1 X138.648 Y179.568 E18.3700
G1 X137.523 Y179.206 E18.4316
G1 X136.713 Y178.875 E18.4773
G1 X136.176 Y178.594 E18.5089
G1 X135.694 Y178.242 E18.5400
G1 X135.253 Y177.778 E18.5734
G1 X134.986 Y177.412 E18.5970
G1 X134.746 Y176.950 E18.6241
G1 X134.625 Y176.628 E18.6421
G1 X134.171 Y176.699 E18.6660
G1 X133.717 Y176.706 E18.6897
G1 X133.262 Y176.651 E18.7136
G1 X132.820 Y176.552 E18.7372
G1 X132.299 Y176.344 E18.7664
G1 X131.712 Y176.000 E18.8019
G1 X130.881 Y175.356 E18.8567
G1 X130.289 Y174.829 E18.8980
G1 X129.725 Y174.261 E18.9398
G1 X129.187 Y173.639 E18.9826
G1 X128.515 Y172.706 E19.0426
G1 X128.354 Y172.453 E19.0582
G1 X128.046 Y171.915 E19.0905
G1 X127.675 Y171.148 E19.1350
G1 X127.302 Y170.159 E19.1901
G1 X127.056 Y169.276 E19.2379
G1 X126.936 Y168.693 E19.2689
G1 X126.801 Y167.697 E19.3213
G1 X126.752 Y166.868 E19.3646
G1 X126.754 Y166.081 E19.4056
G1 X126.808 Y165.236 E19.4498
G1 X126.944 Y164.186 E19.5050
G1 X127.134 Y163.201 E19.5573
G1 X126.313 Y162.924 E19.6024
