; HEADER_BLOCK_START
; generated by OrcaSlicer 2.3.0-beta2 on 2025-03-08 at 22:56:15
; total layer number: 190
;_GP_TOTAL_LAYER_NUMBER_PLACEHOLDER
; filament_density: 1.24,1.24
; filament_diameter: 1.75,1.75
; max_z_height: 38.00
; HEADER_BLOCK_END

; THUMBNAIL_BLOCK_START

;
; THUMBNAIL_BLOCK_END

; THUMBNAIL_BLOCK_START

;
; THUMBNAIL_BLOCK_END

; external perimeters extrusion width = 0.42mm
; perimeters extrusion width = 0.45mm
; infill extrusion width = 0.45mm
; solid infill extrusion width = 0.42mm
; top infill extrusion width = 0.42mm
; support material extrusion width = 0.42mm
; first layer extrusion width = 0.50mm

; EXECUTABLE_BLOCK_START
EXCLUDE_OBJECT_DEFINE NAME=AzulTileTray.stl_id_0_copy_0 CENTER=150,150 POLYGON=[[39.4142,185.015],[39.4151,114.979],[39.5193,114.635],[39.8255,114.101],[40.2482,113.468],[40.784,112.737],[55.5691,93.3227],[56.0061,92.7515],[56.4891,92.1645],[58.2979,90.3453],[70.9958,77.6475],[74.6237,74.0195],[75.3748,73.404],[75.6538,73.2388],[76.2327,72.9469],[76.8494,72.7444],[77.1648,72.6662],[78.1358,72.5733],[245.713,72.5733],[247.178,72.6456],[247.839,72.7262],[248.627,72.8572],[249.917,73.1761],[250.046,73.2087],[251.423,73.6985],[251.907,73.9153],[252.742,74.3211],[253.769,74.9289],[253.994,75.0691],[255.166,75.9354],[255.465,76.1968],[256.246,76.9128],[256.962,77.6938],[257.223,77.9932],[258.09,79.165],[258.23,79.39],[258.838,80.4167],[259.244,81.2516],[259.46,81.7365],[259.95,83.1125],[259.983,83.2415],[260.303,84.5321],[260.433,85.3202],[260.516,85.9812],[260.586,87.4462],[260.586,212.554],[260.513,214.019],[260.433,214.68],[260.302,215.468],[259.983,216.758],[259.95,216.887],[259.46,218.264],[259.244,218.748],[258.838,219.583],[258.23,220.61],[258.09,220.835],[257.224,222.007],[256.962,222.306],[256.246,223.087],[255.465,223.803],[255.166,224.064],[253.994,224.931],[253.769,225.071],[252.742,225.679],[251.907,226.085],[251.423,226.301],[250.046,226.791],[249.917,226.824],[248.627,227.144],[247.839,227.274],[247.178,227.357],[245.713,227.427],[78.1358,227.427],[77.165,227.333],[76.8494,227.256],[76.2326,227.053],[75.6538,226.761],[75.3745,226.597],[74.6237,225.98],[70.9958,222.353],[58.2979,209.655],[56.4891,207.836],[55.9622,207.193],[40.777,187.254],[40.2369,186.516],[39.817,185.886],[39.5193,185.365],[39.4142,185.015]]
M73 P0 R92
M106 S0
M106 P2 S0
;TYPE:Custom
M106 P2 S255 
M191 S35 ;set chamber_temperature and wait for it to be reached
M106 P2 S0 
M140 S0
M104 S0 
START_PRINT EXTRUDER_TEMP=220 BED_TEMP=50
G90
G21
M83 ; use relative distances for extrusion
T1
M104 S220 ; set nozzle temperature
; filament start gcode
M106 S0
M106 P2 S0
;LAYER_CHANGE
;Z:0.2
;HEIGHT:0.2
;BEFORE_LAYER_CHANGE
;0.2
G92 E0

G1 E-.8 F2400
;AFTER_LAYER_CHANGE
;0.2
;_SET_FAN_SPEED_CHANGING_LAYER
SET_VELOCITY_LIMIT ACCEL=1000 ACCEL_TO_DECEL=1000
SET_VELOCITY_LIMIT SQUARE_CORNER_VELOCITY=20
; printing object AzulTileTray.stl id:0 copy 0
EXCLUDE_OBJECT_START NAME=AzulTileTray.stl_id_0_copy_0
G1 X42.715 Y116.968 F30000
G1 Z.6
G1 Z.2
G1 E.8 F2400
;TYPE:Inner wall
;WIDTH:0.5
G1 F3000
G1 X80.104 Y79.58 E1.90912
G1 X80.995 Y78.898 E.0405
G1 X81.982 Y78.49 E.03858
G1 X83.104 Y78.344 E.04084
G1 X240.77 Y78.344 E5.69269
G1 X241.164 Y78.372 E.01426
G1 X242.801 Y78.488 E.05924
G1 X244.766 Y78.911 E.07261
G1 X246.642 Y79.607 E.07223
G1 X248.396 Y80.562 E.0721
G1 X249.994 Y81.756 E.07201
G1 X251.404 Y83.165 E.07198
G1 X252.597 Y84.763 E.07201
G1 X253.552 Y86.517 E.0721
G1 X254.248 Y88.393 E.07223
G1 X254.671 Y90.353 E.07241
G1 X254.815 Y92.389 E.0737
G1 X254.815 Y207.611 E4.16021
G1 X254.671 Y209.647 E.0737
G1 X254.248 Y211.607 E.07241
G1 X253.552 Y213.483 E.07223
G1 X252.597 Y215.237 E.0721
G1 X251.403 Y216.835 E.07201
G1 X249.994 Y218.244 E.07198
G1 X248.396 Y219.438 E.07201
G1 X246.642 Y220.393 E.0721
G1 X244.766 Y221.089 E.07223
G1 X242.806 Y221.512 E.07241
G1 X240.77 Y221.656 E.0737
G1 X83.104 Y221.656 E5.69269
G1 X81.982 Y221.51 E.04084
G1 X80.995 Y221.102 E.03858
G1 X80.104 Y220.42 E.0405
G1 X42.362 Y182.678 E1.92717
G1 X42.362 Y117.322 E2.35976
G1 X42.687 Y116.997 E.01661
G1 X41.904 Y117.151 F30000
;TYPE:Outer wall
G1 F3000
G1 X41.904 Y117.133 E.00067
G1 X79.802 Y79.235 E1.93511
G1 X80.765 Y78.498 E.04377
G1 X81.864 Y78.045 E.04293
G1 X83.074 Y77.887 E.04408
G1 X240.786 Y77.887 E5.69435
G1 X241.196 Y77.916 E.01485
G1 X242.865 Y78.034 E.06041
G1 X244.895 Y78.472 E.07496
G1 X246.832 Y79.19 E.07459
G1 X248.643 Y80.176 E.07447
G1 X250.294 Y81.409 E.07439
G1 X251.75 Y82.865 E.07436
G1 X252.983 Y84.516 E.07439
G1 X253.969 Y86.327 E.07447
G1 X254.687 Y88.264 E.07459
G1 X255.125 Y90.288 E.07476
G1 X255.272 Y92.373 E.07546
G1 X255.272 Y207.627 E4.16138
G1 X255.125 Y209.712 E.07546
G1 X254.687 Y211.736 E.07476
G1 X253.969 Y213.673 E.07459
G1 X252.983 Y215.484 E.07447
G1 X251.75 Y217.135 E.07439
G1 X250.294 Y218.591 E.07436
G1 X248.643 Y219.824 E.07439
G1 X246.832 Y220.81 E.07447
G1 X244.895 Y221.528 E.0746
G1 X242.871 Y221.965 E.07476
G1 X240.786 Y222.113 E.07546
G1 X83.074 Y222.113 E5.69435
G1 X81.864 Y221.955 E.04408
G1 X80.765 Y221.502 E.04293
G1 X79.802 Y220.765 E.04377
G1 X41.904 Y182.867 E1.93511
G1 X41.904 Y117.191 E2.37129
G1 E-.56 F2400
;WIPE_START
G1 F3000
G1 X41.904 Y117.133 E-.00701
G1 X43.277 Y115.76 E-.23299
;WIPE_END
G1 X50.825 Y114.627 Z.6 F30000
G1 X252.162 Y84.409 Z.6
G1 Z.2
G1 E.8 F2400
;TYPE:Bottom surface
;WIDTH:0.500803
G1 F6300
G1 X249.766 Y82.013 E.12252
G1 X248.211 Y80.851 E.07024
G1 X247.653 Y80.547 E.02297
G1 X252.612 Y85.506 E.25366
G1 X253.239 Y86.659 E.04747
G1 X253.311 Y86.853 E.00748
G1 X246.306 Y79.848 E.35832
G1 X245.276 Y79.466 E.03971
G1 X253.693 Y87.883 E.4305
G1 X253.918 Y88.489 E.02339
G1 X253.991 Y88.828 E.01256
G1 X244.331 Y79.168 E.49413
G1 X243.505 Y78.99 E.03054
G1 X254.169 Y89.654 E.54547
G1 X254.335 Y90.468 E.03003
G1 X242.691 Y78.824 E.59561
G1 X241.994 Y78.774 E.02527
G1 X254.385 Y91.165 E.63379
G1 X254.434 Y91.862 E.02527
G1 X241.297 Y78.725 E.67196
G1 X241.14 Y78.714 E.00571
G2 X240.612 Y78.687 I-.455 J3.715 E.01915
G1 X254.472 Y92.547 E.70899
G1 X254.472 Y93.195 E.02342
G1 X239.964 Y78.687 E.74212
G1 X239.317 Y78.687 E.02342
G1 X254.472 Y93.843 E.77524
G1 X254.472 Y94.49 E.02342
G1 X238.669 Y78.687 E.80836
G1 X238.021 Y78.687 E.02342
G1 X254.472 Y95.138 E.84148
G1 X254.472 Y95.785 E.02342
G1 X237.374 Y78.687 E.87461
G1 X236.726 Y78.687 E.02342
G1 X254.472 Y96.433 E.90773
G1 X254.472 Y97.08 E.02342
G1 X236.079 Y78.687 E.94085
G1 X235.431 Y78.687 E.02342
G1 X254.472 Y97.728 E.97398
G1 X254.472 Y98.375 E.02342
G1 X234.784 Y78.687 E1.0071
G1 X234.136 Y78.687 E.02342
G1 X254.472 Y99.023 E1.04022
G1 X254.472 Y99.67 E.02342
G1 X233.489 Y78.687 E1.07334
G1 X232.841 Y78.687 E.02342
G1 X254.472 Y100.318 E1.10647
G1 X254.472 Y100.965 E.02342
G1 X232.194 Y78.687 E1.13959
G1 X231.546 Y78.687 E.02342
G1 X254.472 Y101.613 E1.17271
G1 X254.472 Y102.261 E.02342
G1 X230.898 Y78.687 E1.20583
G1 X230.251 Y78.687 E.02342
G1 X254.472 Y102.908 E1.23896
G1 X254.472 Y103.556 E.02342
G1 X229.603 Y78.687 E1.27208
G1 X228.956 Y78.687 E.02342
G1 X254.472 Y104.203 E1.3052
G1 X254.472 Y104.851 E.02342
G1 X228.308 Y78.687 E1.33833
G1 X227.661 Y78.687 E.02342
G1 X254.472 Y105.498 E1.37145
G1 X254.472 Y106.146 E.02342
G1 X227.013 Y78.687 E1.40457
G1 X226.366 Y78.687 E.02342
G1 X254.472 Y106.793 E1.43769
G1 X254.472 Y107.441 E.02342
G1 X225.718 Y78.687 E1.47082
G1 X225.071 Y78.687 E.02342
G1 X254.472 Y108.088 E1.50394
G1 X254.472 Y108.736 E.02342
G1 X224.423 Y78.687 E1.53706
G1 X223.775 Y78.687 E.02342
G1 X254.472 Y109.384 E1.57018
G1 X254.472 Y110.031 E.02342
G1 X223.128 Y78.687 E1.60331
G1 X222.48 Y78.687 E.02342
G1 X254.472 Y110.679 E1.63643
G1 X254.472 Y111.326 E.02342
G1 X221.833 Y78.687 E1.66955
G1 X221.185 Y78.687 E.02342
G1 X254.472 Y111.974 E1.70268
G1 X254.472 Y112.621 E.02342
G1 X220.538 Y78.687 E1.7358
G1 X219.89 Y78.687 E.02342
G1 X254.472 Y113.269 E1.76892
G1 X254.472 Y113.916 E.02342
G1 X219.243 Y78.687 E1.80204
G1 X218.595 Y78.687 E.02342
M73 P0 R91
G1 X254.472 Y114.564 E1.83517
G1 X254.472 Y115.211 E.02342
G1 X217.948 Y78.687 E1.86829
G1 X217.3 Y78.687 E.02342
G1 X254.472 Y115.859 E1.90141
G1 X254.472 Y116.507 E.02342
G1 X216.652 Y78.687 E1.93454
G1 X216.005 Y78.687 E.02342
G1 X254.472 Y117.154 E1.96766
G1 X254.472 Y117.802 E.02342
G1 X215.357 Y78.687 E2.00078
G1 X214.71 Y78.687 E.02342
G1 X254.472 Y118.449 E2.0339
G1 X254.472 Y119.097 E.02342
G1 X214.062 Y78.687 E2.06703
G1 X213.415 Y78.687 E.02342
G1 X254.472 Y119.744 E2.10015
G1 X254.472 Y120.392 E.02342
G1 X212.767 Y78.687 E2.13327
G1 X212.12 Y78.687 E.02342
G1 X254.472 Y121.039 E2.16639
G1 X254.472 Y121.687 E.02342
G1 X211.472 Y78.687 E2.19952
G1 X210.825 Y78.687 E.02342
G1 X254.472 Y122.334 E2.23264
G1 X254.472 Y122.982 E.02342
G1 X210.177 Y78.687 E2.26576
G1 X209.529 Y78.687 E.02342
G1 X254.472 Y123.63 E2.29889
G1 X254.472 Y124.277 E.02342
G1 X208.882 Y78.687 E2.33201
G1 X208.234 Y78.687 E.02342
G1 X254.472 Y124.925 E2.36513
G1 X254.472 Y125.572 E.02342
G1 X207.587 Y78.687 E2.39825
G1 X206.939 Y78.687 E.02342
M73 P1 R91
G1 X254.472 Y126.22 E2.43138
G1 X254.472 Y126.867 E.02342
G1 X206.292 Y78.687 E2.4645
G1 X205.644 Y78.687 E.02342
G1 X254.472 Y127.515 E2.49762
G1 X254.472 Y128.162 E.02342
G1 X204.997 Y78.687 E2.53075
G1 X204.349 Y78.687 E.02342
G1 X254.472 Y128.81 E2.56387
G1 X254.472 Y129.457 E.02342
G1 X203.702 Y78.687 E2.59699
G1 X203.054 Y78.687 E.02342
G1 X254.472 Y130.105 E2.63011
G1 X254.472 Y130.753 E.02342
G1 X202.406 Y78.687 E2.66324
G1 X201.759 Y78.687 E.02342
G1 X254.472 Y131.4 E2.69636
G1 X254.472 Y132.048 E.02342
G1 X201.111 Y78.687 E2.72948
G1 X200.464 Y78.687 E.02342
G1 X254.472 Y132.695 E2.7626
G1 X254.472 Y133.343 E.02342
G1 X199.816 Y78.687 E2.79573
G1 X199.169 Y78.687 E.02342
G1 X254.472 Y133.99 E2.82885
G1 X254.472 Y134.638 E.02342
G1 X198.521 Y78.687 E2.86197
G1 X197.874 Y78.687 E.02342
G1 X254.472 Y135.285 E2.8951
G1 X254.472 Y135.933 E.02342
G1 X197.226 Y78.687 E2.92822
G1 X196.579 Y78.687 E.02342
G1 X254.472 Y136.58 E2.96134
G1 X254.472 Y137.228 E.02342
G1 X195.931 Y78.687 E2.99446
G1 X195.284 Y78.687 E.02342
G1 X254.472 Y137.876 E3.02759
G1 X254.472 Y138.523 E.02342
G1 X194.636 Y78.687 E3.06071
G1 X193.988 Y78.687 E.02342
G1 X254.472 Y139.171 E3.09383
G1 X254.472 Y139.818 E.02342
G1 X193.341 Y78.687 E3.12696
G1 X192.693 Y78.687 E.02342
G1 X254.472 Y140.466 E3.16008
G1 X254.472 Y141.113 E.02342
G1 X192.046 Y78.687 E3.1932
G1 X191.398 Y78.687 E.02342
G1 X254.472 Y141.761 E3.22632
G1 X254.472 Y142.408 E.02342
G1 X190.751 Y78.687 E3.25945
G1 X190.103 Y78.687 E.02342
G1 X254.472 Y143.056 E3.29257
G1 X254.472 Y143.703 E.02342
G1 X189.456 Y78.687 E3.32569
G1 X188.808 Y78.687 E.02342
G1 X254.472 Y144.351 E3.35881
G1 X254.472 Y144.999 E.02342
G1 X188.161 Y78.687 E3.39194
G1 X187.513 Y78.687 E.02342
G1 X254.472 Y145.646 E3.42506
G1 X254.472 Y146.294 E.02342
G1 X186.865 Y78.687 E3.45818
G1 X186.218 Y78.687 E.02342
G1 X254.472 Y146.941 E3.49131
G1 X254.472 Y147.589 E.02342
G1 X185.57 Y78.687 E3.52443
G1 X184.923 Y78.687 E.02342
G1 X254.472 Y148.236 E3.55755
G1 X254.472 Y148.884 E.02342
G1 X184.275 Y78.687 E3.59067
G1 X183.628 Y78.687 E.02342
G1 X254.472 Y149.531 E3.6238
G1 X254.472 Y150.179 E.02342
G1 X182.98 Y78.687 E3.65692
G1 X182.333 Y78.687 E.02342
G1 X254.472 Y150.826 E3.69004
G1 X254.472 Y151.474 E.02342
G1 X181.685 Y78.687 E3.72316
G1 X181.038 Y78.687 E.02342
G1 X254.472 Y152.121 E3.75629
G1 X254.472 Y152.769 E.02342
G1 X180.39 Y78.687 E3.78941
G1 X179.742 Y78.687 E.02342
G1 X254.472 Y153.417 E3.82253
G1 X254.472 Y154.064 E.02342
G1 X179.095 Y78.687 E3.85566
G1 X178.447 Y78.687 E.02342
G1 X254.472 Y154.712 E3.88878
G1 X254.472 Y155.359 E.02342
G1 X177.8 Y78.687 E3.9219
G1 X177.152 Y78.687 E.02342
G1 X254.472 Y156.007 E3.95502
G1 X254.472 Y156.654 E.02342
G1 X176.505 Y78.687 E3.98815
G1 X175.857 Y78.687 E.02342
G1 X254.472 Y157.302 E4.02127
G1 X254.472 Y157.949 E.02342
G1 X175.21 Y78.687 E4.05439
G1 X174.562 Y78.687 E.02342
G1 X254.472 Y158.597 E4.08752
G1 X254.472 Y159.244 E.02342
M73 P1 R90
G1 X173.915 Y78.687 E4.12064
G1 X173.267 Y78.687 E.02342
G1 X254.472 Y159.892 E4.15376
G1 X254.472 Y160.54 E.02342
G1 X172.619 Y78.687 E4.18688
G1 X171.972 Y78.687 E.02342
G1 X254.472 Y161.187 E4.22001
G1 X254.472 Y161.835 E.02342
G1 X171.324 Y78.687 E4.25313
G1 X170.677 Y78.687 E.02342
G1 X254.472 Y162.482 E4.28625
G1 X254.472 Y163.13 E.02342
G1 X170.029 Y78.687 E4.31937
G1 X169.382 Y78.687 E.02342
M73 P2 R90
G1 X254.472 Y163.777 E4.3525
G1 X254.472 Y164.425 E.02342
G1 X168.734 Y78.687 E4.38562
G1 X168.087 Y78.687 E.02342
G1 X254.472 Y165.072 E4.41874
G1 X254.472 Y165.72 E.02342
G1 X167.439 Y78.687 E4.45187
G1 X166.792 Y78.687 E.02342
G1 X254.472 Y166.367 E4.48499
G1 X254.472 Y167.015 E.02342
G1 X166.144 Y78.687 E4.51811
G1 X165.496 Y78.687 E.02342
G1 X254.472 Y167.663 E4.55123
G1 X254.472 Y168.31 E.02342
G1 X164.849 Y78.687 E4.58436
G1 X164.201 Y78.687 E.02342
G1 X254.472 Y168.958 E4.61748
G1 X254.472 Y169.605 E.02342
G1 X163.554 Y78.687 E4.6506
G1 X162.906 Y78.687 E.02342
G1 X254.472 Y170.253 E4.68373
G1 X254.472 Y170.9 E.02342
G1 X162.259 Y78.687 E4.71685
G1 X161.611 Y78.687 E.02342
G1 X254.472 Y171.548 E4.74997
G1 X254.472 Y172.195 E.02342
G1 X160.964 Y78.687 E4.78309
G1 X160.316 Y78.687 E.02342
G1 X254.472 Y172.843 E4.81622
G1 X254.472 Y173.49 E.02342
G1 X159.669 Y78.687 E4.84934
G1 X159.021 Y78.687 E.02342
G1 X254.472 Y174.138 E4.88246
G1 X254.472 Y174.786 E.02342
G1 X158.373 Y78.687 E4.91558
G1 X157.726 Y78.687 E.02342
G1 X254.472 Y175.433 E4.94871
G1 X254.472 Y176.081 E.02342
G1 X157.078 Y78.687 E4.98183
G1 X156.431 Y78.687 E.02342
G1 X254.472 Y176.728 E5.01495
G1 X254.472 Y177.376 E.02342
G1 X155.783 Y78.687 E5.04808
G1 X155.136 Y78.687 E.02342
G1 X254.472 Y178.023 E5.0812
G1 X254.472 Y178.671 E.02342
G1 X154.488 Y78.687 E5.11432
G1 X153.841 Y78.687 E.02342
G1 X254.472 Y179.318 E5.14744
G1 X254.472 Y179.966 E.02342
G1 X153.193 Y78.687 E5.18057
G1 X152.546 Y78.687 E.02342
G1 X254.472 Y180.613 E5.21369
G1 X254.472 Y181.261 E.02342
G1 X151.898 Y78.687 E5.24681
G1 X151.25 Y78.687 E.02342
G1 X254.472 Y181.909 E5.27994
G1 X254.472 Y182.556 E.02342
G1 X150.603 Y78.687 E5.31306
G1 X149.955 Y78.687 E.02342
G1 X254.472 Y183.204 E5.34618
G1 X254.472 Y183.851 E.02342
G1 X149.308 Y78.687 E5.3793
G1 X148.66 Y78.687 E.02342
G1 X254.472 Y184.499 E5.41243
G1 X254.472 Y185.146 E.02342
G1 X148.013 Y78.687 E5.44555
G1 X147.365 Y78.687 E.02342
G1 X254.472 Y185.794 E5.47867
G1 X254.472 Y186.441 E.02342
G1 X146.718 Y78.687 E5.51179
G1 X146.07 Y78.687 E.02342
G1 X254.472 Y187.089 E5.54492
G1 X254.472 Y187.736 E.02342
G1 X145.423 Y78.687 E5.57804
G1 X144.775 Y78.687 E.02342
M73 P2 R89
G1 X254.472 Y188.384 E5.61116
G1 X254.472 Y189.032 E.02342
G1 X144.128 Y78.687 E5.64429
G1 X143.48 Y78.687 E.02342
M73 P3 R89
G1 X254.472 Y189.679 E5.67741
G1 X254.472 Y190.327 E.02342
G1 X142.832 Y78.687 E5.71053
G1 X142.185 Y78.687 E.02342
G1 X254.472 Y190.974 E5.74365
G1 X254.472 Y191.622 E.02342
G1 X141.537 Y78.687 E5.77678
G1 X140.89 Y78.687 E.02342
G1 X254.472 Y192.269 E5.8099
G1 X254.472 Y192.917 E.02342
G1 X140.242 Y78.687 E5.84302
G1 X139.595 Y78.687 E.02342
G1 X254.472 Y193.564 E5.87615
G1 X254.472 Y194.212 E.02342
G1 X138.947 Y78.687 E5.90927
G1 X138.3 Y78.687 E.02342
G1 X254.472 Y194.859 E5.94239
G1 X254.472 Y195.507 E.02342
G1 X137.652 Y78.687 E5.97551
G1 X137.005 Y78.687 E.02342
G1 X254.472 Y196.155 E6.00864
G1 X254.472 Y196.802 E.02342
G1 X136.357 Y78.687 E6.04176
G1 X135.709 Y78.687 E.02342
G1 X254.472 Y197.45 E6.07488
G1 X254.472 Y198.097 E.02342
G1 X135.062 Y78.687 E6.108
G1 X134.414 Y78.687 E.02342
G1 X254.472 Y198.745 E6.14113
G1 X254.472 Y199.392 E.02342
G1 X133.767 Y78.687 E6.17425
G1 X133.119 Y78.687 E.02342
G1 X254.472 Y200.04 E6.20737
G1 X254.472 Y200.687 E.02342
G1 X132.472 Y78.687 E6.2405
G1 X131.824 Y78.687 E.02342
G1 X254.472 Y201.335 E6.27362
G1 X254.472 Y201.982 E.02342
G1 X131.177 Y78.687 E6.30674
G1 X130.529 Y78.687 E.02342
G1 X254.472 Y202.63 E6.33986
G1 X254.472 Y203.278 E.02342
G1 X129.882 Y78.687 E6.37299
G1 X129.234 Y78.687 E.02342
G1 X254.472 Y203.925 E6.40611
