;FLAVOR:Marlin
;TIME:2848
;Filament used: 1.67714m
;Layer height: 0.2
;MINX:110.545
;MINY:112.251
;MINZ:0.2
;MAXX:189.455
;MAXY:187.749
;MAXZ:5
;TARGET_MACHINE.NAME:Creality K1 Max
;Generated with Cura_SteamEngine 5.9.1
M82 ;absolute extrusion mode
M140 S0
M104 S0 
START_PRINT EXTRUDER_TEMP=200 BED_TEMP=60

G92 E0
G92 E0
G1 F2400 E-0.5
;LAYER_COUNT:25
;LAYER:0
M107
G0 F6000 X160.697 Y187.601 Z0.2
;TYPE:SKIRT
G1 F2400 E0
G1 F1200 X160.067 Y187.667 E0.02107
G1 X159.163 Y187.725 E0.0512
G1 X158.236 Y187.744 E0.08204
G1 X157.25 Y187.718 E0.11484
G1 X156.299 Y187.65 E0.14655
G1 X153.746 Y187.507 E0.2316
G1 X151.215 Y187.437 E0.31581
G1 X148.728 Y187.439 E0.39853
G1 X146.158 Y187.513 E0.48404
G1 X144.086 Y187.626 E0.55306
G1 X142.404 Y187.73 E0.60911
G1 X141.572 Y187.749 E0.63679
G1 X140.999 Y187.738 E0.65585
G1 X140.217 Y187.695 E0.6819
G1 X139.727 Y187.651 E0.69827
G1 X138.978 Y187.556 E0.72338
G1 X138.321 Y187.447 E0.74553
G1 X137.639 Y187.313 E0.76864
G1 X136.978 Y187.159 E0.79122
G1 X136.325 Y186.985 E0.8137
G1 X135.8 Y186.827 E0.83193
G1 X135.274 Y186.655 E0.85034
G1 X134.78 Y186.478 E0.86779
G1 X134.138 Y186.224 E0.89075
G1 X133.429 Y185.917 E0.91645
G1 X132.617 Y185.522 E0.94648
G1 X128.788 Y183.308 E1.09359
G1 X128.347 Y183.063 E1.11037
G1 X127.326 Y182.419 E1.15052
G1 X126.766 Y182.01 E1.17359
G1 X126.201 Y181.566 E1.19749
G1 X125.811 Y181.245 E1.21429
G1 X125.342 Y180.832 E1.23507
G1 X124.736 Y180.269 E1.26258
G1 X124.242 Y179.78 E1.2857
G1 X123.721 Y179.212 E1.31134
G1 X123.382 Y178.816 E1.32868
G1 X123.022 Y178.373 E1.34766
G1 X122.497 Y177.673 E1.37677
G1 X122.158 Y177.187 E1.39647
G1 X121.715 Y176.494 E1.42383
G1 X121.424 Y175.998 E1.44296
G1 X121.067 Y175.337 E1.46794
G1 X120.314 Y173.819 E1.5243
G1 X119.113 Y171.475 E1.6119
G1 X117.93 Y169.32 E1.69367
G1 X116.635 Y167.107 E1.77895
G1 X115.308 Y164.984 E1.86222
G1 X113.667 Y162.501 E1.96121
G1 X113.327 Y161.966 E1.98229
G1 X112.918 Y161.257 E2.00952
G1 X112.647 Y160.741 E2.0289
G1 X112.367 Y160.171 E2.05002
G1 X112.092 Y159.54 E2.07292
G1 X111.839 Y158.909 E2.09553
G1 X111.585 Y158.212 E2.1202
G1 X111.397 Y157.621 E2.14083
G1 X111.27 Y157.181 E2.15606
G1 X111.133 Y156.658 E2.17404
G1 X110.962 Y155.922 E2.19918
G1 X110.81 Y155.136 E2.2258
G1 X110.709 Y154.465 E2.24837
G1 X110.6 Y153.529 E2.27971
G1 X110.545 Y152.406 E2.31711
G1 X110.568 Y150.506 E2.38031
G1 X110.547 Y147.67 E2.47464
G1 X110.599 Y146.562 E2.51153
G1 X110.663 Y145.914 E2.53319
G1 X110.747 Y145.278 E2.55452
G1 X110.922 Y144.287 E2.58799
G1 X111.083 Y143.544 E2.61328
G1 X111.251 Y142.876 E2.63619
G1 X111.38 Y142.428 E2.6517
G1 X111.586 Y141.784 E2.67418
G1 X111.783 Y141.234 E2.69362
G1 X112.108 Y140.427 E2.72255
G1 X112.487 Y139.6 E2.75281
G1 X112.743 Y139.079 E2.77212
G1 X113.129 Y138.36 E2.79926
G1 X113.623 Y137.554 E2.8307
G1 X114.5 Y136.239 E2.88327
G1 X115.45 Y134.79 E2.9409
G1 X116.796 Y132.624 E3.02572
G1 X118.053 Y130.466 E3.10878
G1 X119.265 Y128.246 E3.19291
G1 X120.416 Y125.985 E3.27729
G1 X120.92 Y124.941 E3.31585
G1 X121.262 Y124.286 E3.34043
G1 X121.769 Y123.421 E3.37377
G1 X122.069 Y122.95 E3.39235
G1 X122.323 Y122.574 E3.40744
G1 X122.739 Y122.001 E3.43099
G1 X123.192 Y121.419 E3.45552
G1 X123.721 Y120.791 E3.48283
G1 X124.263 Y120.21 E3.50926
G1 X124.769 Y119.704 E3.53306
G1 X125.281 Y119.218 E3.55654
G1 X125.977 Y118.613 E3.58721
G1 X126.511 Y118.193 E3.60981
G1 X127.17 Y117.704 E3.6371
G1 X128.251 Y117.003 E3.67995
G1 X129.71 Y116.183 E3.73562
G1 X131.263 Y115.282 E3.79533
G1 X132.284 Y114.677 E3.83481
G1 X133.438 Y114.081 E3.87801
G1 X133.923 Y113.866 E3.89565
G1 X134.432 Y113.656 E3.91396
G1 X134.834 Y113.503 E3.92827
G1 X135.477 Y113.281 E3.9509
G1 X136.433 Y112.984 E3.98419
G1 X137.244 Y112.768 E4.01211
G1 X138.157 Y112.576 E4.04314
G1 X138.585 Y112.501 E4.05759
G1 X139.303 Y112.399 E4.08171
G1 X139.933 Y112.333 E4.10278
G1 X140.837 Y112.275 E4.13291
G1 X141.764 Y112.256 E4.16375
G1 X142.75 Y112.282 E4.19655
G1 X143.701 Y112.35 E4.22826
G1 X146.254 Y112.493 E4.31331
G1 X148.785 Y112.563 E4.39752
G1 X151.272 Y112.561 E4.48024
G1 X153.842 Y112.487 E4.56575
G1 X155.914 Y112.374 E4.63477
G1 X157.596 Y112.27 E4.69082
G1 X158.428 Y112.251 E4.7185
G1 X159.001 Y112.262 E4.73756
G1 X159.787 Y112.305 E4.76375
G1 X160.277 Y112.349 E4.78011
G1 X161.025 Y112.445 E4.80519
G1 X161.813 Y112.574 E4.83175
G1 X162.484 Y112.706 E4.85449
G1 X162.86 Y112.793 E4.86733
G1 X163.458 Y112.949 E4.88789
G1 X164.044 Y113.121 E4.9082
G1 X164.676 Y113.327 E4.93031
G1 X165.285 Y113.547 E4.95184
G1 X165.887 Y113.786 E4.97339
G1 X166.556 Y114.075 E4.99762
G1 X167.368 Y114.47 E5.02766
G1 X171.212 Y116.692 E5.17533
G1 X171.653 Y116.937 E5.19211
G1 X172.677 Y117.583 E5.23238
G1 X173.223 Y117.982 E5.25487
G1 X173.843 Y118.469 E5.2811
G1 X174.48 Y119.006 E5.30881
G1 X174.809 Y119.3 E5.32348
G1 X175.312 Y119.773 E5.34645
G1 X175.872 Y120.342 E5.373
G1 X176.258 Y120.764 E5.39202
G1 X176.593 Y121.152 E5.40907
G1 X177.014 Y121.672 E5.43132
G1 X177.284 Y122.026 E5.44613
G1 X177.702 Y122.608 E5.46996
G1 X178.175 Y123.327 E5.49859
G1 X178.513 Y123.892 E5.52049
G1 X178.76 Y124.335 E5.53736
G1 X179.01 Y124.81 E5.55521
G1 X179.708 Y126.225 E5.60769
G1 X180.907 Y128.561 E5.69502
G1 X182.115 Y130.761 E5.7785
G1 X183.382 Y132.919 E5.86173
G1 X184.747 Y135.1 E5.94731
G1 X186.494 Y137.744 E6.05271
G1 X187.033 Y138.651 E6.0878
G1 X187.516 Y139.581 E6.12265
G1 X187.873 Y140.363 E6.15125
G1 X188.022 Y140.721 E6.16414
G1 X188.241 Y141.289 E6.18439
G1 X188.526 Y142.126 E6.2138
G1 X188.666 Y142.588 E6.22986
G1 X188.864 Y143.327 E6.2553
G1 X189.017 Y143.994 E6.27806
G1 X189.204 Y144.965 E6.31095
G1 X189.3 Y145.613 E6.33274
G1 X189.381 Y146.308 E6.35601
G1 X189.455 Y147.638 E6.40032
G1 X189.432 Y149.492 E6.46198
G1 X189.454 Y152.349 E6.55701
G1 X189.4 Y153.482 E6.59474
G1 X189.296 Y154.426 E6.62633
G1 X189.233 Y154.86 E6.64091
G1 X189.123 Y155.496 E6.66238
G1 X188.988 Y156.147 E6.68449
G1 X188.837 Y156.778 E6.70607
G1 X188.665 Y157.415 E6.72802
G1 X188.425 Y158.179 E6.75465
G1 X188.222 Y158.75 E6.77481
G1 X187.896 Y159.563 E6.80394
G1 X187.508 Y160.41 E6.83493
G1 X187.249 Y160.937 E6.85446
G1 X186.881 Y161.619 E6.88023
G1 X186.684 Y161.957 E6.89325
G1 X186.332 Y162.516 E6.91522
G1 X185.534 Y163.704 E6.96282
G1 X184.08 Y165.948 E7.05175
G1 X182.796 Y168.057 E7.13387
G1 X181.554 Y170.236 E7.21729
G1 X180.374 Y172.447 E7.30065
G1 X179.148 Y174.925 E7.3926
G1 X178.822 Y175.556 E7.41623
G1 X178.482 Y176.161 E7.43931
G1 X178.175 Y176.669 E7.45905
G1 X177.852 Y177.17 E7.47888
G1 X177.589 Y177.553 E7.49433
G1 X177.149 Y178.15 E7.519
G1 X176.729 Y178.679 E7.54146
G1 X176.289 Y179.199 E7.56412
G1 X175.99 Y179.529 E7.57893
G1 X175.44 Y180.093 E7.60513
G1 X174.732 Y180.768 E7.63767
G1 X174.014 Y181.394 E7.66935
G1 X173.534 Y181.775 E7.68973
G1 X172.693 Y182.392 E7.72442
G1 X171.699 Y183.026 E7.76364
G1 X170.416 Y183.747 E7.81259
G1 X168.814 Y184.681 E7.87426
G1 X168.655 Y184.766 E7.88026
G1 X167.692 Y185.336 E7.91748
G1 X166.446 Y185.97 E7.96398
G1 X165.822 Y186.239 E7.98658
G1 X165.188 Y186.488 E8.00923
G1 X164.276 Y186.801 E8.0413
G1 X163.493 Y187.037 E8.0685
G1 X162.708 Y187.241 E8.09548
G1 X161.859 Y187.421 E8.12435
G1 X161.427 Y187.497 E8.13893
G1 X160.697 Y187.601 E8.16346
G0 F6000 X161.371 Y187.101
G1 F1200 X160.655 Y187.203 E8.18751
G1 X160.041 Y187.268 E8.20805
G1 X159.155 Y187.325 E8.23758
G1 X158.246 Y187.344 E8.26782
G1 X157.279 Y187.319 E8.29999
G1 X156.328 Y187.251 E8.3317
G1 X153.757 Y187.107 E8.41735
G1 X151.226 Y187.037 E8.50156
G1 X148.716 Y187.039 E8.58505
G1 X146.146 Y187.113 E8.67056
G1 X144.061 Y187.227 E8.74001
G1 X142.395 Y187.33 E8.79553
G1 X141.579 Y187.349 E8.82268
G1 X141.021 Y187.339 E8.84124
G1 X140.253 Y187.297 E8.86682
G1 X139.777 Y187.254 E8.88272
G1 X139.043 Y187.161 E8.90732
G1 X138.398 Y187.055 E8.92907
G1 X137.729 Y186.923 E8.95175
G1 X137.081 Y186.773 E8.97387
G1 X136.44 Y186.602 E8.99593
G1 X135.924 Y186.447 E9.01385
G1 X135.409 Y186.279 E9.03187
G1 X134.927 Y186.106 E9.0489
G1 X134.297 Y185.857 E9.07143
G1 X133.604 Y185.557 E9.09655
G1 X132.792 Y185.162 E9.12658
G1 X128.982 Y182.958 E9.27298
G1 X128.541 Y182.713 E9.28976
G1 X127.562 Y182.096 E9.32825
G1 X127.013 Y181.696 E9.35084
G1 X126.455 Y181.257 E9.37446
G1 X126.075 Y180.944 E9.39083
G1 X125.614 Y180.539 E9.41124
G1 X125.017 Y179.984 E9.43835
G1 X124.537 Y179.51 E9.46079
G1 X124.025 Y178.951 E9.486
G1 X123.692 Y178.563 E9.50301
G1 X123.342 Y178.133 E9.52145
G1 X122.825 Y177.444 E9.5501
G1 X122.495 Y176.971 E9.56928
G1 X122.06 Y176.292 E9.5961
G1 X121.776 Y175.808 E9.61476
G1 X121.425 Y175.159 E9.63931
G1 X120.672 Y173.641 E9.69566
G1 X119.469 Y171.293 E9.78341
G1 X118.281 Y169.128 E9.86555
G1 X116.98 Y166.905 E9.95122
G1 X115.642 Y164.763 E10.03522
G1 X114.004 Y162.286 E10.13399
G1 X113.673 Y161.766 E10.15449
G1 X113.272 Y161.071 E10.18118
G1 X113.006 Y160.565 E10.20019
G1 X112.734 Y160.011 E10.22072
G1 X112.463 Y159.391 E10.24322
G1 X112.215 Y158.772 E10.2654
G1 X111.966 Y158.09 E10.28955
G1 X111.781 Y157.51 E10.3098
G1 X111.657 Y157.08 E10.32468
G1 X111.523 Y156.567 E10.34232
G1 X111.355 Y155.846 E10.36694
G1 X111.203 Y155.06 E10.39357
G1 X111.106 Y154.419 E10.41513
G1 X111 Y153.509 E10.4456
G1 X110.945 Y152.386 E10.483
G1 X110.968 Y150.511 E10.54536
G1 X110.947 Y147.689 E10.63923
G1 X110.999 Y146.581 E10.67612
G1 X111.06 Y145.966 E10.69668
G1 X111.142 Y145.342 E10.71761
G1 X111.211 Y144.916 E10.73196
G1 X111.313 Y144.372 E10.75037
G1 X111.471 Y143.642 E10.77521
G1 X111.636 Y142.986 E10.79771
G1 X111.761 Y142.55 E10.8128
G1 X111.963 Y141.918 E10.83486
G1 X112.154 Y141.383 E10.85376
G1 X112.472 Y140.593 E10.88208
G1 X112.846 Y139.776 E10.91197
G1 X113.095 Y139.268 E10.93079
G1 X113.47 Y138.569 E10.95717
G1 X113.956 Y137.776 E10.9881
G1 X114.833 Y136.461 E11.04067
G1 X115.785 Y135.009 E11.09842
G1 X117.136 Y132.835 E11.18356
G1 X118.399 Y130.667 E11.26701
G1 X119.616 Y128.438 E11.35147
G1 X120.776 Y126.159 E11.43653
G1 X121.275 Y125.126 E11.47468
G1 X121.607 Y124.488 E11.49861
G1 X122.106 Y123.636 E11.53145
G1 X122.4 Y123.174 E11.54966
G1 X122.647 Y122.809 E11.56432
G1 X123.055 Y122.247 E11.58742
G1 X123.508 Y121.665 E11.61195
G1 X124.013 Y121.064 E11.63806
G1 X124.546 Y120.493 E11.66404
G1 X125.044 Y119.994 E11.68748
G1 X125.543 Y119.52 E11.71037
G1 X126.225 Y118.927 E11.74043
G1 X126.749 Y118.514 E11.76262
G1 X127.388 Y118.04 E11.78909
G1 X128.469 Y117.339 E11.83194
G1 X129.906 Y116.532 E11.88675
G1 X131.464 Y115.628 E11.94666
G1 X132.488 Y115.021 E11.98626
G1 X133.6 Y114.447 E12.02788
G1 X134.076 Y114.236 E12.0452
G1 X134.574 Y114.03 E12.06312
G1 X134.965 Y113.881 E12.07704
G1 X135.596 Y113.663 E12.09924
G1 X136.536 Y113.371 E12.13198
G1 X137.347 Y113.155 E12.1599
G1 X138.226 Y112.97 E12.18977
G1 X138.641 Y112.897 E12.20379
G1 X139.345 Y112.797 E12.22744
G1 X139.959 Y112.732 E12.24797
G1 X140.845 Y112.675 E12.2775
G1 X141.754 Y112.656 E12.30774
G1 X142.721 Y112.681 E12.33992
G1 X143.672 Y112.749 E12.37163
G1 X146.243 Y112.893 E12.45727
G1 X148.774 Y112.963 E12.54149
G1 X151.284 Y112.961 E12.62497
G1 X153.854 Y112.887 E12.71048
G1 X155.939 Y112.773 E12.77993
G1 X157.605 Y112.67 E12.83545
G1 X158.421 Y112.651 E12.8626
G1 X158.979 Y112.661 E12.88116
G1 X159.751 Y112.703 E12.90688
G1 X160.226 Y112.746 E12.92274
G1 X160.96 Y112.84 E12.94735
G1 X161.748 Y112.969 E12.97391
G1 X162.394 Y113.096 E12.99581
G1 X162.759 Y113.18 E13.00826
G1 X163.346 Y113.333 E13.02844
G1 X163.92 Y113.501 E13.04833
G1 X164.54 Y113.703 E13.07002
G1 X165.138 Y113.919 E13.09117
G1 X165.728 Y114.153 E13.11228
G1 X166.381 Y114.435 E13.13594
G1 X167.193 Y114.83 E13.16597
G1 X171.018 Y117.042 E13.31293
G1 X171.459 Y117.287 E13.32971
G1 X172.441 Y117.906 E13.36832
G1 X172.976 Y118.297 E13.39036
G1 X173.585 Y118.775 E13.41611
G1 X174.213 Y119.304 E13.44342
G1 X174.535 Y119.592 E13.45779
G1 X175.027 Y120.054 E13.48023
G1 X175.577 Y120.612 E13.50629
G1 X175.955 Y121.026 E13.52494
G1 X176.282 Y121.404 E13.54156
G1 X176.696 Y121.915 E13.56344
G1 X176.959 Y122.259 E13.57784
G1 X177.368 Y122.828 E13.60115
G1 X177.832 Y123.532 E13.62919
G1 X178.164 Y124.087 E13.6507
G1 X178.406 Y124.521 E13.66723
G1 X178.651 Y124.987 E13.68474
G1 X179.352 Y126.408 E13.73744
G1 X180.556 Y128.754 E13.82514
G1 X181.764 Y130.954 E13.90862
G1 X183.037 Y133.122 E13.99224
G1 X184.413 Y135.321 E14.07852
G1 X186.15 Y137.949 E14.18329
G1 X186.678 Y138.836 E14.21762
G1 X187.152 Y139.747 E14.25178
G1 X187.504 Y140.516 E14.27991
G1 X187.649 Y140.865 E14.29248
G1 X187.862 Y141.418 E14.31219
G1 X188.143 Y142.242 E14.34115
G1 X188.28 Y142.692 E14.35679
G1 X188.474 Y143.416 E14.38172
G1 X188.624 Y144.07 E14.40404
G1 X188.808 Y145.024 E14.43635
G1 X188.903 Y145.66 E14.45774
G1 X188.982 Y146.33 E14.48018
G1 X189.055 Y147.633 E14.52359
G1 X189.032 Y149.487 E14.58525
G1 X189.054 Y152.33 E14.67982
G1 X189.002 Y153.438 E14.71671
G1 X188.9 Y154.369 E14.74786
G1 X188.839 Y154.792 E14.76207
G1 X188.731 Y155.415 E14.7831
G1 X188.599 Y156.054 E14.80481
G1 X188.451 Y156.674 E14.82601
G1 X188.283 Y157.295 E14.8474
G1 X188.048 Y158.045 E14.87354
G1 X187.851 Y158.601 E14.89316
G1 X187.532 Y159.397 E14.92169
G1 X187.149 Y160.234 E14.9523
G1 X186.897 Y160.747 E14.97131
G1 X186.536 Y161.417 E14.99662
G1 X186.345 Y161.744 E15.00922
G1 X186 Y162.293 E15.03079
G1 X185.198 Y163.486 E15.0786
G1 X183.744 Y165.73 E15.16753
G1 X182.455 Y167.849 E15.25002
G1 X181.201 Y170.048 E15.33422
G1 X180.015 Y172.27 E15.41799
G1 X178.793 Y174.741 E15.50968
G1 X178.473 Y175.36 E15.53286
G1 X178.14 Y175.954 E15.55551
G1 X177.839 Y176.452 E15.57486
G1 X177.522 Y176.944 E15.59433
G1 X177.267 Y177.316 E15.60933
G1 X176.836 Y177.901 E15.63349
G1 X176.423 Y178.421 E15.65558
G1 X175.992 Y178.931 E15.67779
G1 X175.704 Y179.25 E15.69208
G1 X175.164 Y179.804 E15.71781
G1 X174.469 Y180.467 E15.74976
G1 X173.765 Y181.081 E15.78083
G1 X173.297 Y181.453 E15.80072
G1 X172.478 Y182.055 E15.83452
G1 X171.503 Y182.677 E15.87299
G1 X170.214 Y183.401 E15.92216
G1 X168.625 Y184.328 E15.98335
G1 X168.466 Y184.413 E15.98934
G1 X167.488 Y184.992 E16.02714
G1 X166.288 Y185.603 E16.07193
G1 X165.676 Y185.867 E16.0941
G1 X165.058 Y186.11 E16.11619
G1 X164.16 Y186.418 E16.14776
G1 X163.392 Y186.65 E16.17445
G1 X162.625 Y186.85 E16.20081
G1 X161.789 Y187.027 E16.22923
G1 X161.371 Y187.101 E16.24335
G0 F6000 X161.315 Y186.705
G1 F1200 X160.612 Y186.805 E16.26697
G1 X160.015 Y186.869 E16.28694
G1 X159.146 Y186.925 E16.3159
G1 X158.256 Y186.944 E16.34551
G1 X157.308 Y186.92 E16.37705
G1 X156.357 Y186.852 E16.40876
G1 X153.768 Y186.707 E16.49501
G1 X151.237 Y186.637 E16.57922
G1 X148.704 Y186.639 E16.66347
G1 X146.134 Y186.713 E16.74898
G1 X144.036 Y186.828 E16.81887
G1 X142.386 Y186.93 E16.87385
G1 X141.586 Y186.949 E16.90047
G1 X141.043 Y186.94 E16.91853
G1 X140.289 Y186.899 E16.94364
G1 X139.827 Y186.857 E16.95907
G1 X139.107 Y186.766 E16.98321
G1 X138.476 Y186.663 E17.00448
G1 X137.819 Y186.533 E17.02675
G1 X137.184 Y186.386 E17.04843
G1 X136.555 Y186.219 E17.07008
G1 X136.048 Y186.067 E17.08768
G1 X135.544 Y185.902 E17.10532
G1 X135.074 Y185.734 E17.12192
G1 X134.456 Y185.49 E17.14402
G1 X133.779 Y185.197 E17.16856
G1 X132.967 Y184.802 E17.19859
G1 X129.176 Y182.608 E17.34427
G1 X128.735 Y182.363 E17.36105
G1 X127.798 Y181.773 E17.39788
G1 X127.26 Y181.381 E17.42002
G1 X126.709 Y180.948 E17.44333
G1 X126.339 Y180.643 E17.45928
G1 X125.886 Y180.246 E17.47931
G1 X125.298 Y179.7 E17.506
G1 X124.832 Y179.239 E17.5278
G1 X124.328 Y178.69 E17.55259
G1 X124.002 Y178.311 E17.56921
G1 X123.662 Y177.893 E17.58714
G1 X123.153 Y177.215 E17.61533
G1 X122.832 Y176.755 E17.63399
G1 X122.405 Y176.089 E17.6603
G1 X122.128 Y175.618 E17.67848
G1 X121.783 Y174.981 E17.70257
G1 X121.03 Y173.463 E17.75893
G1 X119.825 Y171.111 E17.84683
G1 X118.632 Y168.936 E17.92934
G1 X117.325 Y166.703 E18.01539
G1 X115.976 Y164.542 E18.10012
G1 X114.341 Y162.071 E18.19867
G1 X114.019 Y161.566 E18.21859
G1 X113.626 Y160.885 E18.24474
G1 X113.365 Y160.389 E18.26338
G1 X113.093 Y159.835 E18.28391
G1 X112.834 Y159.243 E18.3054
G1 X112.591 Y158.635 E18.32718
G1 X112.347 Y157.968 E18.3508
